;Generated with Cura_SteamEngine 13.06.4
M109 T0 S220.000000
T0
;Sliced at: Fri 27 Sep 2013 23:47:21
;Basic settings: Layer height: 0.2 Walls: 1 Fill: 60
;Print time: #P_TIME#
;Filament used: #F_AMNT#m #F_WGHT#g
;Filament cost: #F_COST#
G21        ;metric values
G90        ;absolute positioning
M107       ;start with the fan off
G28 X0 Y0  ;move X/Y to min endstops
G28 Z0     ;move Z to min endstops
G1 Z15.0 F9000 ;move the platform down 15mm
G92 E0                  ;zero the extruded length
G1 F200 E3              ;extrude 3mm of feed stock
G92 E0                  ;zero the extruded length again
G1 F9000
M117 Printing...

;total_layers=138
;LAYER:0
M107
G0 F2940 X67.28 Y46.33 Z0.30
;TYPE:SKIRT
G1 F1140 X68.28 Y45.05 E0.11176
G1 X69.64 Y44.39 E0.21512
G1 X70.92 Y44.40 E0.30279
G1 X71.12 Y44.41 E0.31661
G1 X71.15 Y44.42 E0.31869
G1 X71.46 Y44.41 E0.34003
G1 X71.91 Y44.46 E0.37132
G1 X121.68 Y44.47 E3.78522
G1 X127.35 Y44.46 E4.17445
G1 X127.36 Y44.46 E4.17493
G1 X128.61 Y44.46 E4.26096
G1 X128.70 Y44.43 E4.26753
G1 X129.16 Y44.42 E4.29861
G1 X129.21 Y44.42 E4.30218
G1 X130.49 Y44.42 E4.39013
G1 X130.97 Y44.50 E4.42331
G1 X131.93 Y44.80 E4.49226
G1 X133.01 Y45.79 E4.59290
G1 X133.52 Y47.07 E4.68724
G1 X133.64 Y47.68 E4.72993
G1 X133.63 Y91.78 E7.75522
G1 X133.63 Y91.87 E7.76126
G1 X133.38 Y96.54 E8.08215
G1 X133.40 Y103.12 E8.53374
G1 X133.40 Y103.13 E8.53422
G1 X133.39 Y104.09 E8.60035
G1 X133.44 Y116.79 E9.47142
G1 X133.44 Y116.81 E9.47286
G1 X133.39 Y122.22 E9.84420
G1 X133.55 Y123.57 E9.93707
G1 X133.56 Y123.74 E9.94883
G1 X133.63 Y131.53 E10.48351
G1 X133.63 Y131.62 E10.48914
G1 X133.46 Y135.74 E10.77256
G1 X133.45 Y135.84 E10.77888
G1 X133.39 Y136.47 E10.82286
G1 X133.41 Y140.20 E11.07860
G1 X133.40 Y140.26 E11.08285
G1 X133.33 Y142.43 E11.23131
G1 X133.42 Y145.82 E11.46415
G1 X133.42 Y145.89 E11.46903
G1 X133.37 Y149.35 E11.70614
G1 X133.46 Y153.71 E12.00523
G1 X131.55 Y155.66 E12.19272
G1 X105.43 Y155.66 E13.98473
G1 X68.84 Y155.66 E16.49484
G1 X66.95 Y153.83 E16.67540
G1 X66.89 Y151.90 E16.80800
G1 X66.89 Y151.80 E16.81500
G1 X67.05 Y146.49 E17.17916
G1 X67.03 Y142.67 E17.44094
G1 X66.90 Y137.98 E17.76299
G1 X66.90 Y137.93 E17.76642
G1 X66.97 Y119.96 E18.99888
G1 X66.90 Y113.83 E19.41955
G1 X66.90 Y113.81 E19.42134
G1 X66.95 Y106.44 E19.92679
G1 X66.93 Y95.77 E20.65881
G1 X66.93 Y95.74 E20.66080
G1 X67.04 Y89.21 E21.10847
G1 X67.09 Y86.16 E21.31820
G1 X66.94 Y77.69 E21.89927
G1 X66.94 Y77.66 E21.90133
G1 X66.95 Y57.89 E23.25732
G1 X66.86 Y50.59 E23.75827
G1 X66.86 Y50.53 E23.76245
G1 X66.89 Y49.40 E23.83952
G1 X66.86 Y49.06 E23.86343
G1 X66.85 Y48.94 E23.87182
G1 X66.85 Y48.72 E23.88650
G1 X66.85 Y48.59 E23.89556
G1 X66.93 Y47.26 E23.98709
G1 X67.28 Y46.33 E24.05509
G0 F2940 X70.87 Y48.41
;TYPE:WALL-INNER
G1 F1140 X70.97 Y48.42 E24.06259
G1 X71.22 Y48.42 E24.07967
G1 X71.44 Y48.46 E24.09451
G1 X129.17 Y48.46 E28.05494
G1 X129.32 Y48.42 E28.06552
G1 X129.64 Y48.42 E28.08748
G1 X129.64 Y91.71 E31.05720
G1 X129.38 Y96.45 E31.38256
G1 X129.40 Y103.13 E31.84059
G1 X129.39 Y104.09 E31.90638
G1 X129.44 Y116.80 E32.77828
G1 X129.39 Y122.41 E33.16368
G1 X129.56 Y123.90 E33.26648
G1 X129.63 Y131.52 E33.78903
G1 X129.47 Y135.51 E34.06318
G1 X129.39 Y136.31 E34.11811
G1 X129.41 Y140.16 E34.38222
G1 X129.33 Y142.41 E34.53645
G1 X129.33 Y142.43 E34.53796
G1 X129.42 Y145.88 E34.77479
G1 X129.37 Y149.35 E35.01320
G1 X129.42 Y151.66 E35.17143
G1 X70.89 Y151.66 E39.18619
G1 X71.05 Y146.54 E39.53806
G1 X71.03 Y142.61 E39.80759
G1 X70.90 Y137.90 E40.13074
G1 X70.97 Y119.93 E41.36354
G1 X70.90 Y113.82 E41.78250
G1 X70.95 Y106.43 E42.28905
G1 X70.93 Y95.79 E43.01915
G1 X71.04 Y89.28 E43.46592
G1 X71.09 Y86.17 E43.67923
G1 X70.94 Y77.65 E44.26413
G1 X70.95 Y57.85 E45.62246
G1 X70.86 Y50.60 E46.11956
G1 X70.90 Y49.28 E46.20980
G1 X70.85 Y48.76 E46.24604
G1 X70.87 Y48.41 E46.26981
G0 F2940 X81.71 Y55.75
G1 F1140 X81.56 Y56.02 E46.29149
G1 X81.43 Y56.35 E46.31576
G1 X81.35 Y56.45 E46.32471
G1 X81.28 Y56.60 E46.33558
G1 X81.18 Y57.05 E46.36745
G1 X81.15 Y57.54 E46.40121
G1 X81.15 Y57.58 E46.40416
G1 X81.19 Y58.27 E46.45137
G1 X81.28 Y58.61 E46.47531
G1 X81.34 Y58.74 E46.48562
G1 X81.39 Y58.81 E46.49081
G1 X81.54 Y59.28 E46.52489
G1 X81.72 Y59.59 E46.54953
G1 X82.11 Y60.10 E46.59348
G1 X82.21 Y60.21 E46.60391
G1 X82.31 Y60.37 E46.61686
G1 X82.40 Y60.47 E46.62605
G1 X82.73 Y60.73 E46.65465
G1 X83.43 Y61.11 E46.70958
G1 X84.47 Y61.42 E46.78423
G1 X84.69 Y61.45 E46.79932
G1 X84.99 Y61.46 E46.81970
G1 X85.37 Y61.38 E46.84657
G1 X85.74 Y61.33 E46.87164
G1 X85.99 Y61.26 E46.88953
G1 X86.33 Y61.19 E46.91337
G1 X86.59 Y61.07 E46.93345
G1 X87.11 Y60.75 E46.97512
G1 X87.49 Y60.43 E47.00941
G1 X88.04 Y59.85 E47.06375
G1 X88.23 Y59.58 E47.08703
G1 X88.39 Y59.29 E47.10952
G1 X88.48 Y59.05 E47.12691
G1 X88.61 Y58.62 E47.15779
G1 X88.70 Y58.02 E47.19935
G1 X88.71 Y57.65 E47.22524
G1 X88.70 Y57.29 E47.24969
G1 X88.65 Y56.94 E47.27408
G1 X88.60 Y56.75 E47.28766
G1 X88.56 Y56.45 E47.30831
G1 X88.54 Y56.35 E47.31525
G1 X88.41 Y56.04 E47.33845
G1 X88.33 Y55.92 E47.34827
G1 X88.19 Y55.77 E47.36220
G1 X87.74 Y55.11 E47.41716
G1 X87.50 Y54.88 E47.43966
G1 X86.86 Y54.38 E47.49564
G1 X86.81 Y54.34 E47.49991
G1 X86.53 Y54.19 E47.52151
G1 X86.18 Y54.06 E47.54744
G1 X85.72 Y53.97 E47.57959
G1 X85.61 Y53.91 E47.58766
G1 X85.46 Y53.87 E47.59875
G1 X84.66 Y53.85 E47.65324
G1 X84.59 Y53.85 E47.65792
G1 X84.19 Y53.92 E47.68561
G1 X84.08 Y53.95 E47.69366
G1 X83.89 Y54.05 E47.70826
G1 X83.68 Y54.10 E47.72367
G1 X83.42 Y54.21 E47.74304
G1 X83.11 Y54.38 E47.76660
G1 X82.97 Y54.42 E47.77670
G1 X82.82 Y54.50 E47.78821
G1 X82.18 Y55.06 E47.84715
G1 X82.07 Y55.22 E47.86022
G1 X82.03 Y55.33 E47.86816
G1 X81.71 Y55.75 E47.90413
G0 F2940 X81.20 Y57.58
G0 X81.76 Y59.56
G0 X83.38 Y61.04
G0 X85.36 Y61.33
G0 X87.23 Y60.57
G0 X88.44 Y59.03
G0 X88.51 Y56.46
G0 X111.29 Y57.45
G1 F1140 X111.29 Y57.51 E47.90846
G1 X111.32 Y58.10 E47.94843
G1 X111.39 Y58.50 E47.97660
G1 X111.44 Y58.66 E47.98793
G1 X111.44 Y58.81 E47.99831
G1 X111.51 Y59.00 E48.01206
G1 X111.60 Y59.14 E48.02344
G1 X111.62 Y59.27 E48.03244
G1 X111.67 Y59.40 E48.04184
G1 X111.92 Y59.78 E48.07309
G1 X112.07 Y59.94 E48.08794
G1 X112.25 Y60.18 E48.10889
G1 X112.67 Y60.58 E48.14833
G1 X112.90 Y60.75 E48.16813
G1 X113.40 Y61.06 E48.20886
G1 X113.68 Y61.19 E48.22959
G1 X113.97 Y61.28 E48.25038
G1 X114.39 Y61.36 E48.27980
G1 X114.50 Y61.40 E48.28771
G1 X114.61 Y61.43 E48.29540
G1 X114.93 Y61.45 E48.31762
G1 X115.48 Y61.44 E48.35544
G1 X115.62 Y61.40 E48.36551
G1 X115.72 Y61.36 E48.37281
G1 X115.99 Y61.30 E48.39154
G1 X116.19 Y61.23 E48.40623
G1 X116.47 Y61.17 E48.42592
G1 X116.61 Y61.10 E48.43654
G1 X116.81 Y60.96 E48.45324
G1 X117.32 Y60.68 E48.49349
G1 X117.56 Y60.47 E48.51521
G1 X118.22 Y59.73 E48.58320
G1 X118.43 Y59.40 E48.60977
G1 X118.48 Y59.26 E48.62007
G1 X118.50 Y59.14 E48.62891
G1 X118.72 Y58.53 E48.67322
G1 X118.80 Y57.99 E48.71075
G1 X118.81 Y57.61 E48.73641
G1 X118.81 Y57.56 E48.73978
G1 X118.74 Y56.92 E48.78417
G1 X118.71 Y56.79 E48.79305
G1 X118.64 Y56.65 E48.80410
G1 X118.44 Y56.07 E48.84604
G1 X118.18 Y55.51 E48.88808
G1 X118.11 Y55.40 E48.89726
G1 X117.83 Y55.10 E48.92564
G1 X117.42 Y54.71 E48.96436
G1 X117.37 Y54.67 E48.96889
G1 X117.07 Y54.47 E48.99321
G1 X116.40 Y54.13 E49.04469
G1 X116.01 Y54.00 E49.07341
G1 X115.33 Y53.90 E49.12027
G1 X115.23 Y53.90 E49.12741
G1 X115.14 Y53.87 E49.13364
G1 X114.97 Y53.85 E49.14566
G1 X114.71 Y53.88 E49.16312
G1 X114.49 Y53.88 E49.17828
G1 X114.30 Y53.92 E49.19173
G1 X114.22 Y53.97 E49.19812
G1 X114.11 Y53.99 E49.20616
G1 X113.68 Y54.12 E49.23648
G1 X113.56 Y54.18 E49.24584
G1 X113.42 Y54.29 E49.25791
G1 X113.22 Y54.39 E49.27307
G1 X113.11 Y54.46 E49.28240
G1 X112.96 Y54.52 E49.29346
G1 X112.86 Y54.57 E49.30121
G1 X112.63 Y54.76 E49.32193
G1 X112.14 Y55.25 E49.36913
G1 X111.82 Y55.68 E49.40594
G1 X111.69 Y55.90 E49.42356
G1 X111.64 Y56.07 E49.43573
G1 X111.57 Y56.19 E49.44474
G1 X111.39 Y56.70 E49.48205
G1 X111.38 Y56.76 E49.48597
G1 X111.29 Y57.45 E49.53416
G0 F2940 X111.79 Y57.49
;TYPE:WALL-OUTER
G1 F1140 X111.79 Y57.51 E49.53567
G1 X111.82 Y58.03 E49.57125
G1 X111.87 Y58.38 E49.59509
G1 X111.93 Y58.57 E49.60913
G1 X111.94 Y58.71 E49.61889
G1 X111.96 Y58.78 E49.62344
G1 X112.03 Y58.88 E49.63180
G1 X112.08 Y59.00 E49.64083
G1 X112.12 Y59.18 E49.65343
G1 X112.29 Y59.45 E49.67574
G1 X112.45 Y59.61 E49.69112
G1 X112.61 Y59.83 E49.70998
G1 X112.99 Y60.19 E49.74554
G1 X113.17 Y60.34 E49.76137
G1 X113.62 Y60.61 E49.79789
G1 X113.85 Y60.72 E49.81474
G1 X114.08 Y60.79 E49.83138
G1 X114.53 Y60.88 E49.86282
G1 X114.69 Y60.93 E49.87428
G1 X114.93 Y60.95 E49.89080
G1 X115.41 Y60.94 E49.92423
G1 X115.46 Y60.93 E49.92761
G1 X115.57 Y60.88 E49.93565
G1 X115.84 Y60.82 E49.95440
G1 X116.05 Y60.75 E49.97014
G1 X116.31 Y60.69 E49.98819
G1 X116.36 Y60.67 E49.99172
G1 X116.54 Y60.54 E50.00709
G1 X117.02 Y60.27 E50.04500
G1 X117.20 Y60.13 E50.06099
G1 X117.81 Y59.45 E50.12338
G1 X117.98 Y59.18 E50.14511
G1 X117.99 Y59.13 E50.14850
G1 X118.02 Y59.00 E50.15756
G1 X118.23 Y58.43 E50.19939
G1 X118.30 Y57.96 E50.23214
G1 X118.31 Y57.61 E50.25575
G1 X118.25 Y57.01 E50.29724
G1 X118.24 Y56.97 E50.30022
G1 X118.17 Y56.83 E50.31053
G1 X117.99 Y56.29 E50.34997
G1 X117.87 Y56.06 E50.36789
G1 X117.71 Y55.71 E50.39397
G1 X117.08 Y55.08 E50.45494
G1 X117.07 Y55.07 E50.45645
G1 X116.83 Y54.91 E50.47624
G1 X116.25 Y54.61 E50.52104
G1 X115.91 Y54.49 E50.54551
G1 X115.32 Y54.41 E50.58630
G1 X115.13 Y54.40 E50.59927
G1 X115.02 Y54.36 E50.60741
G1 X114.96 Y54.35 E50.61142
G1 X114.74 Y54.38 E50.62702
G1 X114.55 Y54.38 E50.63979
G1 X114.49 Y54.39 E50.64424
G1 X114.39 Y54.45 E50.65171
G1 X113.87 Y54.59 E50.68873
G1 X113.83 Y54.61 E50.69189
G1 X113.68 Y54.72 E50.70485
G1 X113.47 Y54.82 E50.72078
G1 X113.33 Y54.91 E50.73205
G1 X113.15 Y54.99 E50.74594
G1 X112.97 Y55.13 E50.76169
G1 X112.52 Y55.56 E50.80418
G1 X112.25 Y55.94 E50.83599
G1 X112.13 Y56.15 E50.85234
G1 X112.10 Y56.28 E50.86183
G1 X112.02 Y56.40 E50.87126
G1 X111.94 Y56.60 E50.88630
G1 X111.88 Y56.83 E50.90316
G1 X111.79 Y57.49 E50.94859
G0 F2940 X111.45 Y57.45
G0 X111.89 Y55.66
G0 X113.71 Y54.17
G0 X121.68 Y48.32
G0 X121.68 Y47.97
G1 F1140 X127.36 Y47.96 E51.33782
G1 X129.11 Y47.96 E51.45801
G1 X129.17 Y47.94 E51.46195
G1 X129.21 Y47.92 E51.46548
G1 X130.09 Y47.92 E51.52585
G1 X130.14 Y48.04 E51.53428
G1 X130.14 Y91.72 E54.53103
G1 X129.88 Y96.45 E54.85570
G1 X129.90 Y103.13 E55.31374
G1 X129.89 Y104.08 E55.37953
G1 X129.94 Y116.79 E56.25136
G1 X129.89 Y122.40 E56.63614
G1 X130.06 Y123.87 E56.73744
G1 X130.13 Y131.53 E57.26266
G1 X129.97 Y135.54 E57.53825
G1 X129.89 Y136.32 E57.59209
G1 X129.91 Y140.19 E57.85723
G1 X129.83 Y142.42 E58.01029
G1 X129.92 Y145.88 E58.24801
G1 X129.87 Y149.35 E58.48602
G1 X129.93 Y152.16 E58.67896
G1 X70.39 Y152.16 E62.76280
G1 X70.39 Y151.84 E62.78504
G1 X70.55 Y146.52 E63.14975
G1 X70.53 Y142.61 E63.41818
G1 X70.40 Y137.92 E63.74016
G1 X70.47 Y119.93 E64.97427
G1 X70.40 Y113.82 E65.39364
G1 X70.45 Y106.43 E65.89997
G1 X70.43 Y95.78 E66.63069
G1 X70.54 Y89.27 E67.07747
G1 X70.59 Y86.18 E67.28981
G1 X70.44 Y77.64 E67.87513
G1 X70.45 Y57.85 E69.23312
G1 X70.36 Y50.59 E69.73139
G1 X70.40 Y49.29 E69.82052
G1 X70.35 Y48.78 E69.85512
G1 X70.35 Y48.73 E69.85896
G1 X70.39 Y48.04 E69.90658
G1 X70.50 Y47.90 E69.91879
G1 X70.78 Y47.90 E69.93834
G1 X70.98 Y47.92 E69.95209
G1 X71.28 Y47.91 E69.97282
G1 X71.44 Y47.95 E69.98368
G1 X121.68 Y47.97 E73.43072
G0 F2940 X121.68 Y48.32
G0 X88.40 Y56.42
G0 X88.06 Y56.51
G1 F1140 X87.97 Y56.27 E73.44832
G1 X87.94 Y56.23 E73.45159
G1 X87.79 Y56.07 E73.46683
G1 X87.71 Y55.93 E73.47740
G1 X87.38 Y55.47 E73.51634
G1 X87.37 Y55.45 E73.51785
G1 X87.18 Y55.27 E73.53589
G1 X86.55 Y54.77 E73.59091
G1 X86.34 Y54.66 E73.60745
G1 X86.05 Y54.55 E73.62853
G1 X85.55 Y54.44 E73.66349
G1 X85.44 Y54.38 E73.67223
G1 X85.39 Y54.37 E73.67591
G1 X84.67 Y54.35 E73.72518
G1 X84.27 Y54.42 E73.75285
G1 X84.07 Y54.52 E73.76865
G1 X83.85 Y54.58 E73.78409
G1 X83.64 Y54.66 E73.79919
G1 X83.31 Y54.85 E73.82563
G1 X83.16 Y54.88 E73.83595
G1 X83.11 Y54.91 E73.83982
G1 X82.55 Y55.40 E73.89059
G1 X82.52 Y55.45 E73.89498
G1 X82.47 Y55.57 E73.90357
G1 X82.14 Y56.01 E73.94159
G1 X82.02 Y56.23 E73.95885
G1 X81.86 Y56.60 E73.98638
G1 X81.78 Y56.71 E73.99613
G1 X81.75 Y56.76 E73.99981
G1 X81.68 Y57.08 E74.02247
G1 X81.65 Y57.57 E74.05623
G1 X81.68 Y58.17 E74.09731
G1 X81.75 Y58.44 E74.11610
G1 X81.77 Y58.48 E74.11950
G1 X81.84 Y58.58 E74.12797
G1 X82.00 Y59.06 E74.16270
G1 X82.13 Y59.30 E74.18144
G1 X82.48 Y59.76 E74.22128
G1 X82.61 Y59.90 E74.23453
G1 X82.75 Y60.11 E74.25126
G1 X82.99 Y60.30 E74.27275
G1 X83.60 Y60.64 E74.32051
G1 X84.56 Y60.93 E74.38933
G1 X84.75 Y60.95 E74.40201
G1 X84.96 Y60.96 E74.41690
G1 X85.29 Y60.88 E74.44001
G1 X85.62 Y60.85 E74.46250
G1 X85.87 Y60.77 E74.48080
G1 X86.16 Y60.72 E74.50059
G1 X86.35 Y60.63 E74.51493
G1 X86.79 Y60.36 E74.55044
G1 X87.14 Y60.07 E74.58221
G1 X87.64 Y59.55 E74.63155
G1 X87.80 Y59.32 E74.65053
G1 X87.93 Y59.09 E74.66898
G1 X88.13 Y58.48 E74.71306
G1 X88.20 Y57.99 E74.74704
G1 X88.22 Y57.65 E74.76991
G1 X88.20 Y57.35 E74.79106
G1 X88.16 Y57.05 E74.81136
G1 X88.11 Y56.84 E74.82628
G1 X88.06 Y56.51 E74.84966
G0 F2940 X88.70 Y56.29
;TYPE:FILL
G1 F1140 X129.20 Y96.79 E78.77910
G0 F2940 X129.22 Y96.10
G1 F1140 X81.75 Y48.63 E83.38414
G0 F2940 X81.05 Y48.63
G1 F1140 X86.36 Y53.94 E83.89948
G0 F2940 X85.40 Y53.70
G1 F1140 X80.34 Y48.63 E84.39066
G0 F2940 X79.63 Y48.63
G1 F1140 X84.67 Y53.67 E84.87980
G0 F2940 X84.07 Y53.77
G1 F1140 X78.93 Y48.63 E85.37840
G0 F2940 X78.22 Y48.63
G1 F1140 X83.55 Y53.97 E85.89573
G0 F2940 X83.08 Y54.20
G1 F1140 X77.51 Y48.63 E86.43571
G0 F2940 X76.80 Y48.63
G1 F1140 X82.62 Y54.44 E86.99955
G0 F2940 X82.24 Y54.77
G1 F1140 X76.10 Y48.63 E87.59522
G0 F2940 X75.39 Y48.63
G1 F1140 X81.91 Y55.15 E88.22736
G0 F2940 X81.62 Y55.57
G1 F1140 X74.68 Y48.63 E88.90073
G0 F2940 X73.98 Y48.63
G1 F1140 X81.37 Y56.03 E89.61790
G0 F2940 X81.13 Y56.49
G1 F1140 X73.27 Y48.63 E90.38067
G0 F2940 X72.56 Y48.63
G1 F1140 X81.00 Y57.07 E91.19956
G0 F2940 X80.98 Y57.76
G1 F1140 X71.85 Y48.63 E92.08501
G0 F2940 X71.11 Y48.59
G1 F1140 X81.08 Y58.57 E93.05301
G0 F2940 X81.84 Y60.03
G1 F1140 X71.07 Y49.26 E94.09761
G0 F2940 X71.05 Y49.95
G1 F1140 X129.23 Y108.13 E99.74167
G0 F2940 X129.23 Y108.84
G1 F1140 X71.04 Y50.65 E105.38748
G0 F2940 X71.05 Y51.36
G1 F1140 X129.24 Y109.55 E111.03270
G0 F2940 X129.24 Y110.26
G1 F1140 X71.06 Y52.08 E116.67734
G0 F2940 X71.06 Y52.79
G1 F1140 X129.24 Y110.97 E122.32136
G0 F2940 X129.24 Y111.68
G1 F1140 X71.07 Y53.51 E127.96479
G0 F2940 X71.08 Y54.22
G1 F1140 X129.25 Y112.39 E133.60759
G0 F2940 X129.25 Y113.10
G1 F1140 X71.09 Y54.94 E139.24976
G0 F2940 X71.10 Y55.66
G1 F1140 X129.25 Y113.81 E144.89140
G0 F2940 X129.26 Y114.52
G1 F1140 X71.11 Y56.37 E150.53250
G0 F2940 X71.12 Y57.09
G1 F1140 X129.26 Y115.23 E156.17287
G0 F2940 X129.26 Y115.94
G1 F1140 X71.12 Y57.80 E161.81276
G0 F2940 X71.12 Y58.51
G1 F1140 X129.26 Y116.65 E167.45294
G0 F2940 X129.26 Y117.35
G1 F1140 X71.12 Y59.22 E173.09264
G0 F2940 X71.12 Y59.92
G1 F1140 X129.25 Y118.05 E178.73185
G0 F2940 X129.24 Y118.75
G1 F1140 X71.12 Y60.63 E184.37043
G0 F2940 X71.12 Y61.34
G1 F1140 X129.24 Y119.45 E190.00843
G0 F2940 X129.23 Y120.15
G1 F1140 X71.12 Y62.04 E195.64599
G0 F2940 X71.12 Y62.75
G1 F1140 X129.23 Y120.86 E201.28297
G0 F2940 X129.22 Y121.56
G1 F1140 X71.12 Y63.46 E206.91927
G0 F2940 X71.12 Y64.16
G1 F1140 X129.21 Y122.26 E212.55509
G0 F2940 X129.28 Y123.03
G1 F1140 X71.12 Y64.87 E218.19769
G0 F2940 X71.12 Y65.58
G1 F1140 X129.37 Y123.83 E223.84913
G0 F2940 X129.39 Y124.55
G1 F1140 X71.12 Y66.28 E229.50187
G0 F2940 X71.12 Y66.99
G1 F1140 X129.40 Y125.27 E235.15549
G0 F2940 X129.40 Y125.98
G1 F1140 X71.12 Y67.70 E240.80984
G0 F2940 X71.12 Y68.40
G1 F1140 X129.41 Y126.69 E246.46496
G0 F2940 X129.42 Y127.41
G1 F1140 X71.12 Y69.11 E252.12076
G0 F2940 X71.12 Y69.82
G1 F1140 X129.42 Y128.12 E257.77724
G0 F2940 X129.43 Y128.84
G1 F1140 X71.12 Y70.52 E263.43449
G0 F2940 X71.11 Y71.23
G1 F1140 X129.44 Y129.55 E269.09262
G0 F2940 X129.45 Y130.26
G1 F1140 X71.11 Y71.94 E274.75138
