; generated by Slic3r 1.1.7 on 2015-01-02 at 08:13:53

; perimeters extrusion width = 0.40mm
; infill extrusion width = 0.53mm
; solid infill extrusion width = 0.53mm
; top infill extrusion width = 0.53mm

G21 ; set units to millimeters
M107
M190 S110 ; wait for bed temperature to be reached
M104 S235 ; set temperature
G28 ; home all axes
G1 Z5 F5000 ; lift nozzle

M109 S235 ; wait for temperature to be reached
G90 ; use absolute coordinates
G92 E0
M82 ; use absolute distances for extrusion
G1 F1800.000 E-1.00000
G92 E0
G1 Z0.350 F7800.000
G1 X51.876 Y36.789 F7800.000
G1 E1.00000 F1800.000
G1 X53.629 Y35.307 E1.21230 F1080.000
G1 X55.782 Y34.512 E1.42459
G1 X56.971 Y34.404 E1.53502
G1 X71.313 Y34.404 E2.86149
G1 X73.573 Y34.801 E3.07379
G1 X75.929 Y36.273 E3.33071 F1080.000
G1 X137.697 Y96.111 E11.28488
G1 X138.325 Y96.843 E11.37410
G1 X138.508 Y97.086 E11.40219
G1 X138.870 Y97.621 E11.46196
G1 X139.328 Y98.428 E11.54772
G1 X139.701 Y99.247 E11.63103
G1 X139.935 Y99.880 E11.69339
G1 X149.023 Y127.654 E14.39630
G1 X149.295 Y128.852 E14.50988
G1 X149.608 Y131.227 E14.73144
G1 X149.608 Y132.959 E14.89166
G1 X149.295 Y135.334 E15.11323
G1 X148.847 Y137.007 E15.27344
G1 X147.930 Y139.220 E15.49500
G1 X147.371 Y140.286 E15.60631
G1 X139.424 Y152.567 E16.95932
G1 X137.862 Y154.250 E17.17162
G1 X135.821 Y155.300 E17.38391
G1 X133.852 Y155.598 E17.56814
G1 X66.146 Y155.590 E23.83030
G1 X63.886 Y155.192 E24.04260
G1 X61.895 Y154.049 E24.25490
G1 X60.576 Y152.559 E24.43896
G1 X52.629 Y140.277 E25.79197
G1 X52.070 Y139.212 E25.90328
G1 X51.153 Y136.998 E26.12484
G1 X50.705 Y135.325 E26.28507
G1 X50.335 Y132.084 E26.58677
G1 X50.335 Y41.040 E35.00753
G1 X50.732 Y38.779 E35.21982
G1 X51.846 Y36.841 E35.42657
G1 F1800.000 E34.42657
G92 E0
G1 X132.672 Y130.047 F7800.000
G1 E1.00000 F1800.000
G1 X133.853 Y129.730 E1.11310 F378.000
G1 X134.917 Y130.016 E1.21499
G1 X135.034 Y130.047 E1.22620 F378.000
G1 X135.899 Y130.912 E1.33931
G1 X136.215 Y132.093 E1.45241
G1 X135.899 Y133.274 E1.56551
G1 X135.034 Y134.139 E1.67861
G1 X133.853 Y134.455 E1.79171
G1 X132.672 Y134.139 E1.90481
G1 X131.807 Y133.274 E2.01791
G1 X131.490 Y132.093 E2.13102
G1 X131.807 Y130.912 E2.24412
G1 X132.629 Y130.089 E2.35167
G1 X134.986 Y129.916 F7800.000
G1 X135.176 Y122.908 F7800.000
G1 X135.804 Y123.657 E2.44209 F540.000
G1 X136.315 Y124.210 E2.51170
G1 X136.857 Y124.757 E2.58293
G1 X137.430 Y125.298 E2.65586
G1 X138.035 Y125.834 E2.73060
G1 X138.679 Y126.372 E2.80822
G1 X139.185 Y126.760 E2.86721
G1 X140.384 Y128.322 E3.04929
G1 X141.137 Y130.141 E3.23137
G1 X141.394 Y132.093 E3.41345
G1 X141.137 Y134.045 E3.59553
G1 X140.384 Y135.863 E3.77761
G1 X139.179 Y137.434 E3.96071
G1 X138.051 Y138.352 E4.09519
G1 X137.447 Y138.888 E4.16993
G1 X136.873 Y139.430 E4.24287
G1 X136.331 Y139.977 E4.31409
G1 X135.820 Y140.529 E4.38370
G1 X135.342 Y141.089 E4.45180
G1 X134.895 Y141.655 E4.51848
G1 X134.481 Y142.227 E4.58385
G1 X134.100 Y142.807 E4.64803
G1 X133.752 Y143.394 E4.71113
G1 X133.438 Y143.988 E4.77328
G1 X133.159 Y144.590 E4.83462
G1 X132.915 Y145.198 E4.89523
G1 X132.707 Y145.813 E4.95528
G1 X132.537 Y146.434 E5.01486
G1 X132.361 Y147.341 E5.10030
G1 X131.041 Y147.341 E5.22237
G1 X131.041 Y134.306 E6.42804
G1 X132.014 Y135.278 E6.55528
G1 X133.853 Y135.771 E6.73139
G1 X135.692 Y135.278 E6.90751
G1 X137.038 Y133.932 E7.08362
G1 X137.531 Y132.093 E7.25973
G1 X137.038 Y130.254 E7.43584
G1 X135.692 Y128.907 E7.61195
G1 X133.853 Y128.414 E7.78806
G1 X132.014 Y128.907 E7.96417
G1 X131.041 Y129.880 E8.09142
G1 X131.041 Y101.334 E10.73167
G1 X131.438 Y101.569 E10.77437
G1 X131.562 Y101.659 E10.78851 F540.000
G1 X131.769 Y101.863 E10.81538
G1 X131.943 Y102.121 E10.84416
G1 X132.021 Y102.280 E10.86057
G1 X132.154 Y102.677 E10.89931
G1 X132.206 Y102.919 E10.92217
G1 X132.269 Y103.473 E10.97375
G1 X132.280 Y116.423 E12.17154
G1 X132.387 Y117.126 E12.23728
G1 X132.520 Y117.752 E12.29652
G1 X132.691 Y118.373 E12.35610
G1 X132.899 Y118.988 E12.41612
G1 X133.143 Y119.597 E12.47676
G1 X133.422 Y120.198 E12.53809
G1 X133.736 Y120.793 E12.60024
G1 X134.083 Y121.380 E12.66336
G1 X134.465 Y121.959 E12.72752
G1 X135.139 Y122.861 E12.83166
G1 X135.638 Y122.467 F7800.000
G1 X136.279 Y123.235 E12.92419 F540.000
G1 X136.774 Y123.771 E12.99165
G1 X137.301 Y124.302 E13.06086
G1 X138.450 Y125.352 E13.20483
G1 X139.077 Y125.876 E13.28037
G1 X139.639 Y126.307 E13.34589
G1 X140.939 Y128.002 E13.54345
G1 X141.756 Y129.975 E13.74100
G1 X142.035 Y132.093 E13.93857
G1 X141.756 Y134.210 E14.13613
G1 X140.939 Y136.184 E14.33369
G1 X139.634 Y137.884 E14.53186
G1 X138.466 Y138.834 E14.67118
G1 X137.876 Y139.357 E14.74413
G1 X137.317 Y139.884 E14.81517
G1 X136.790 Y140.416 E14.88437
G1 X136.296 Y140.952 E14.95184
G1 X135.833 Y141.493 E15.01766
G1 X135.402 Y142.038 E15.08193
G1 X135.004 Y142.588 E15.14476
G1 X134.639 Y143.144 E15.20626
G1 X134.307 Y143.705 E15.26654
G1 X134.008 Y144.271 E15.32575
G1 X133.743 Y144.842 E15.38400
G1 X133.512 Y145.418 E15.44141
G1 X133.315 Y145.999 E15.49815
G1 X133.154 Y146.585 E15.55433
G1 X133.029 Y147.175 E15.61009
G1 X132.907 Y147.977 E15.68513
G1 X130.405 Y147.977 E15.91654
G1 X130.405 Y132.206 E17.37514
G1 X130.847 Y132.148 E17.41638
G1 X131.237 Y133.603 E17.55568
G1 X132.343 Y134.708 E17.70028
G1 X133.853 Y135.113 E17.84489
G1 X135.363 Y134.708 E17.98949
G1 X136.469 Y133.603 E18.13410
G1 X136.873 Y132.093 E18.27871
G1 X136.469 Y130.583 E18.42331
G1 X135.363 Y129.477 E18.56792
G1 X133.853 Y129.072 E18.71253
G1 X132.343 Y129.477 E18.85713
G1 X131.237 Y130.583 E19.00174
G1 X130.847 Y132.037 E19.14103
G1 X130.405 Y131.979 E19.18228
G1 X130.405 Y101.751 E21.97814
G1 X130.405 Y100.557 E22.08856 F540.000
G1 X130.871 Y100.654 E22.13260
G1 X131.138 Y100.730 E22.15822
G1 X131.378 Y100.820 E22.18197
G1 X131.788 Y101.037 E22.22485
G1 X131.961 Y101.163 E22.24470
G1 X132.258 Y101.456 E22.28325
G1 X132.501 Y101.815 E22.32335
G1 X132.604 Y102.026 E22.34504
G1 X132.771 Y102.520 E22.39328
G1 X132.878 Y103.119 E22.44954
G1 X132.905 Y103.446 E22.47993
G1 X132.916 Y116.375 E23.67571
G1 X133.012 Y117.012 E23.73529
G1 X133.138 Y117.602 E23.79106
G1 X133.299 Y118.187 E23.84724
G1 X133.495 Y118.768 E23.90396
G1 X133.726 Y119.345 E23.96139
G1 X133.991 Y119.916 E24.01964
G1 X134.290 Y120.482 E24.07884
G1 X134.623 Y121.043 E24.13913
G1 X134.988 Y121.598 E24.20062
G1 X135.600 Y122.420 E24.29543
G1 X136.099 Y122.026 F7800.000
G1 X136.754 Y122.812 E24.39007 F378.000
G1 X137.233 Y123.331 E24.45539
G1 X137.745 Y123.847 E24.52258
G1 X138.864 Y124.870 E24.66285
G1 X139.474 Y125.379 E24.73631
G1 X140.092 Y125.854 E24.80836
G1 X141.494 Y127.681 E25.02140
G1 X142.376 Y129.809 E25.23444
G1 X142.676 Y132.093 E25.44748
G1 X142.376 Y134.376 E25.66052
G1 X141.494 Y136.504 E25.87356
G1 X140.090 Y138.334 E26.08681
G1 X138.880 Y139.316 E26.23097
G1 X138.305 Y139.826 E26.30213
G1 X137.250 Y140.855 E26.43843
G1 X136.771 Y141.374 E26.50375
G1 X136.324 Y141.896 E26.56730
G1 X135.909 Y142.421 E26.62916
G1 X135.527 Y142.949 E26.68945
G1 X135.178 Y143.481 E26.74827
G1 X134.861 Y144.015 E26.80574
G1 X134.577 Y144.553 E26.86199
G1 X134.326 Y145.094 E26.91715
G1 X134.108 Y145.638 E26.97137
G1 X133.924 Y146.186 E27.02479
G1 X133.772 Y146.736 E27.07757
G1 X133.654 Y147.289 E27.12987
G1 X133.570 Y147.844 E27.18185
G1 X133.500 Y148.613 E27.25320
G1 X129.770 Y148.612 E27.59827
G1 X129.770 Y99.871 E32.10638
G1 X130.327 Y99.916 E32.15814
G1 X130.687 Y99.966 E32.19177 F378.000
G1 X131.336 Y100.126 E32.25359
G1 X131.626 Y100.234 E32.28217
G1 X131.893 Y100.361 E32.30948
G1 X132.137 Y100.505 E32.33576
G1 X132.361 Y100.668 E32.36133
G1 X132.564 Y100.849 E32.38651
G1 X132.748 Y101.049 E32.41163
G1 X132.913 Y101.269 E32.43705
G1 X133.059 Y101.510 E32.46309
G1 X133.187 Y101.772 E32.49006
G1 X133.297 Y102.056 E32.51824
G1 X133.387 Y102.363 E32.54785
G1 X133.510 Y103.047 E32.61213
G1 X133.540 Y103.420 E32.64673
G1 X133.551 Y116.327 E33.84049
G1 X133.638 Y116.898 E33.89392
G1 X133.756 Y117.451 E33.94622
G1 X133.907 Y118.001 E33.99900
G1 X134.092 Y118.548 E34.05242
G1 X134.310 Y119.092 E34.10664
G1 X134.561 Y119.633 E34.16180
G1 X134.845 Y120.171 E34.21805
G1 X135.162 Y120.706 E34.27552
G1 X135.511 Y121.237 E34.33434
G1 X136.062 Y121.979 E34.41982
G1 F1800.000 E33.41982
G92 E0
G1 X130.640 Y100.102 F7800.000
G1 X131.916 Y117.200 F7800.000
G1 E1.00000 F1800.000
G1 X131.962 Y117.246 E1.00601 F1080.000
G1 X131.482 Y117.678 E1.06574
G1 X132.256 Y118.452 E1.16700
G1 X131.482 Y118.590 E1.23973
G1 X132.802 Y119.910 E1.41247
G1 X131.482 Y119.502 E1.54033
G1 X133.933 Y121.953 E1.86101
G1 X131.482 Y122.238 F7800.000
G1 X140.891 Y131.647 E3.09173 F1080.000
G1 X140.888 Y132.556 E3.17587
G1 X131.482 Y123.150 E4.40628
G1 X131.482 Y124.062 E4.49063
G1 X140.782 Y133.362 E5.70717
G1 X140.628 Y134.120 E5.77873
G1 X137.763 Y131.255 E6.15352
G1 X137.924 Y132.328 E6.25390
G1 X140.361 Y134.765 E6.57266
G1 X140.094 Y135.410 E6.63721
G1 X137.732 Y133.048 E6.94624
G1 X137.539 Y133.767 E7.01511
G1 X139.744 Y135.972 E7.30358
G1 X139.349 Y136.488 E7.36374
G1 X137.227 Y134.367 E7.64123
G1 X136.771 Y134.823 E7.70088
G1 X138.953 Y137.004 E7.98622
G1 X138.475 Y137.439 E8.04593
G1 X136.315 Y135.279 E8.32844
G1 X135.824 Y135.699 E8.38826
G1 X137.972 Y137.848 E8.66930
G1 X137.481 Y138.269 E8.72912
G1 X135.105 Y135.892 E9.03997
G1 X134.385 Y136.085 E9.10884
G1 X137.002 Y138.702 E9.45111
G1 X136.534 Y139.145 E9.51077
G1 X133.529 Y136.141 E9.90377
G1 X132.284 Y135.807 E10.02306
G1 X136.080 Y139.603 E10.51963
G1 X135.640 Y140.075 E10.57931
G1 X131.482 Y135.917 E11.12322
G1 X131.482 Y136.829 E11.20757
G1 X135.213 Y140.561 E11.69570
G1 X134.802 Y141.061 E11.75563
G1 X131.482 Y137.741 E12.18993
G1 X131.482 Y138.653 E12.27428
G1 X134.407 Y141.578 E12.65688
G1 X134.029 Y142.112 E12.71739
G1 X131.482 Y139.565 E13.05060
G1 X131.482 Y140.477 E13.13495
G1 X133.671 Y142.666 E13.42131
G1 X133.334 Y143.241 E13.48295
G1 X131.482 Y141.389 E13.72526
G1 X131.482 Y142.301 E13.80960
G1 X133.021 Y143.840 E14.01094
G1 X132.734 Y144.465 E14.07456
G1 X131.482 Y143.213 E14.23837
G1 X131.482 Y144.124 E14.32272
G1 X132.476 Y145.119 E14.45285
G1 X132.252 Y145.807 E14.51974
G1 X131.482 Y145.036 E14.62052
G1 X131.482 Y145.948 E14.70487
G1 X132.068 Y146.535 E14.78158
G1 X131.522 Y146.900 E14.84239
G1 X131.482 Y146.860 E14.84762
G1 X131.579 Y128.719 F7800.000
G1 X131.482 Y128.621 E14.86034 F1080.000
G1 X132.179 Y128.407 E14.92781
G1 X131.482 Y127.709 E15.01900
G1 X131.482 Y126.797 E15.10335
G1 X132.898 Y128.214 E15.28862
G1 X133.617 Y128.021 E15.35749
G1 X131.482 Y125.885 E15.63683
G1 X131.482 Y124.974 E15.72118
G1 X134.690 Y128.182 E16.14091
G1 X140.272 Y129.204 F7800.000
G1 X131.482 Y120.414 E17.29068 F1080.000
G1 X131.482 Y121.326 E17.37503
G1 X140.752 Y130.596 E18.58766
G1 X131.661 Y116.760 F7800.000
G1 X131.655 Y103.498 E19.28376 F360.000
G1 X131.606 Y102.816 E19.31964
G1 X131.494 Y102.235 E19.35072
G1 F1800.000 E18.35072
G92 E0
G1 X110.366 Y101.825 F7800.000
G1 E1.00000 F1800.000
G1 X110.013 Y104.504 E1.24997 F378.000
G1 X109.976 Y104.594 E1.25892
G1 X108.978 Y107.001 E1.49995
G1 X107.333 Y109.145 E1.74992
G1 X105.189 Y110.791 E1.99989
G1 X102.692 Y111.825 E2.24987
G1 X100.013 Y112.178 E2.49984
G1 X97.333 Y111.825 E2.74981
G1 X94.836 Y110.791 E2.99979
G1 X92.692 Y109.145 E3.24976
G1 X91.047 Y107.001 E3.49974
G1 X90.016 Y104.514 E3.74873
G1 X89.920 Y104.013 E3.79592
G1 X89.809 Y103.582 E3.83706
G1 X89.676 Y103.177 E3.87650
G1 X89.522 Y102.797 E3.91443
G1 X89.346 Y102.442 E3.95107
G1 X89.148 Y102.112 E3.98668
G1 X88.928 Y101.806 E4.02152
G1 X88.687 Y101.523 E4.05590
G1 X88.425 Y101.263 E4.09010
G1 X88.139 Y101.025 E4.12445
G1 X87.831 Y100.810 E4.15925
G1 X87.499 Y100.616 E4.19480
G1 X87.142 Y100.444 E4.23137
G1 X86.762 Y100.295 E4.26921
G1 X86.356 Y100.168 E4.30854
G1 X85.925 Y100.063 E4.34957
G1 X85.468 Y99.981 E4.39245
G1 X84.987 Y99.922 E4.43735
G1 X83.545 Y99.835 E4.57093
G1 X82.684 Y99.681 E4.65178
G1 X81.913 Y99.422 E4.72703
G1 X81.235 Y99.055 E4.79838
G1 X80.655 Y98.580 E4.86773
G1 X80.180 Y97.999 E4.93707
G1 X79.815 Y97.320 E5.00840
G1 X79.558 Y96.549 E5.08362
G1 X79.406 Y95.688 E5.16442
G1 X79.357 Y94.748 E5.25150
G1 X79.379 Y73.166 E7.24769
G1 X79.430 Y72.278 E7.32991
G1 X79.516 Y71.477 E7.40439
G1 X79.636 Y70.759 E7.47173
G1 X79.793 Y70.123 E7.53237
G1 X79.989 Y69.566 E7.58696
G1 X80.229 Y69.088 E7.63638
G1 X80.516 Y68.691 E7.68178
G1 X80.858 Y68.379 E7.72453
G1 X81.786 Y67.878 E7.82210
G1 X81.786 Y68.063 E7.83920
G1 X82.151 Y68.067 E7.87294 F378.000
G1 X82.631 Y68.171 E7.91833
G1 X83.127 Y68.368 E7.96775
G1 X83.645 Y68.652 E8.02234
G1 X84.186 Y69.022 E8.08298
G1 X84.754 Y69.477 E8.15032
G1 X85.352 Y70.017 E8.22481
G1 X85.981 Y70.645 E8.30703
G1 X107.353 Y94.530 E11.27144
G1 X108.978 Y96.648 E11.51837
G1 X110.013 Y99.145 E11.76834
G1 X110.358 Y101.765 E12.01277
G1 F1800.000 E11.01277
G92 E0
G1 X81.700 Y67.709 F7800.000
G1 X114.831 Y103.729 F7800.000
G1 E1.00000 F1800.000
G1 X116.012 Y103.412 E1.11310 F378.000
G1 X116.130 Y103.444 E1.12431
G1 X117.194 Y103.729 E1.22620 F378.000
G1 X118.058 Y104.593 E1.33931
G1 X118.375 Y105.775 E1.45240
G1 X118.058 Y106.956 E1.56551
G1 X117.194 Y107.820 E1.67861
G1 X116.012 Y108.137 E1.79171
G1 X114.831 Y107.820 E1.90481
G1 X113.967 Y106.956 E2.01792
G1 X113.650 Y105.775 E2.13102
G1 X113.967 Y104.593 E2.24412
G1 X114.789 Y103.771 E2.35167
G1 X116.334 Y103.100 F7800.000
G1 F1800.000 E1.35167
G92 E0
G1 X86.375 Y105.775 F7800.000
G1 E1.00000 F1800.000
G1 X86.058 Y106.956 E1.11310 F378.000
G1 X85.194 Y107.820 E1.22620
G1 X84.012 Y108.137 E1.33930
G1 X82.831 Y107.820 E1.45241
G1 X81.967 Y106.956 E1.56551
G1 X81.650 Y105.775 E1.67861
G1 X81.967 Y104.593 E1.79171
G1 X82.831 Y103.729 E1.90481
G1 X84.012 Y103.412 E2.01791
G1 X84.130 Y103.444 E2.02912
G1 X85.194 Y103.729 E2.13102 F378.000
G1 X86.058 Y104.593 E2.24412
G1 X86.359 Y105.717 E2.35167
G1 F1800.000 E1.35167
G92 E0
G1 X84.062 Y103.049 F7800.000
G1 X67.328 Y130.047 F7800.000
G1 E1.00000 F1800.000
G1 X68.193 Y130.912 E1.11310 F378.000
G1 X68.224 Y131.029 E1.12431
G1 X68.510 Y132.093 E1.22620
G1 X68.193 Y133.274 E1.33930
G1 X67.328 Y134.139 E1.45241
G1 X66.147 Y134.455 E1.56551
G1 X64.966 Y134.139 E1.67861
G1 X64.101 Y133.274 E1.79171
G1 X63.785 Y132.093 E1.90481
G1 X64.101 Y130.912 E2.01791
G1 X64.966 Y130.047 E2.13101
G1 X66.147 Y129.730 E2.24412
G1 X67.211 Y130.016 E2.34601
G1 X67.270 Y130.031 E2.35167 F378.000
G1 X67.222 Y129.955 F7800.000
G1 F1800.000 E1.35167
G92 E0
G1 X81.967 Y139.782 F7800.000
G1 E1.00000 F1800.000
G1 X82.831 Y138.917 E1.11310 F378.000
G1 X84.013 Y138.600 E1.22620
G1 X84.130 Y138.632 E1.23741
G1 X85.194 Y138.917 E1.33931 F378.000
G1 X86.058 Y139.781 E1.45241
G1 X86.375 Y140.963 E1.56551
G1 X86.058 Y142.144 E1.67861
G1 X85.194 Y143.009 E1.79171
G1 X84.013 Y143.325 E1.90481
G1 X82.831 Y143.009 E2.01792
G1 X81.967 Y142.144 E2.13102
G1 X81.650 Y140.963 E2.24412
G1 X81.951 Y139.839 E2.35167
G1 X84.302 Y138.271 F7800.000
G1 X93.888 Y134.362 F7800.000
G1 X93.511 Y133.118 E2.47188 F540.000
G1 X93.383 Y131.825 E2.59206
G1 X93.511 Y130.531 E2.71226
G1 X93.888 Y129.288 E2.83245
G1 X94.501 Y128.142 E2.95265
G1 X95.325 Y127.137 E3.07284
G1 X96.330 Y126.313 E3.19304
G1 X97.476 Y125.700 E3.31323
G1 X98.355 Y125.433 E3.39826
G1 X98.355 Y125.032 E3.43535
G1 X101.306 Y125.323 E3.70955
G1 X102.549 Y125.700 E3.82975 F540.000
G1 X103.695 Y126.313 E3.94994
G1 X104.700 Y127.137 E4.07013
G1 X105.524 Y128.142 E4.19033
G1 X106.137 Y129.288 E4.31053
G1 X106.514 Y130.531 E4.43072
G1 X106.624 Y131.647 E4.53439
G1 X106.642 Y131.825 E4.55092
G1 X106.514 Y133.118 E4.67111
G1 X106.137 Y134.362 E4.79131
G1 X105.524 Y135.508 E4.91149
G1 X104.700 Y136.512 E5.03169
G1 X103.695 Y137.336 E5.15189
G1 X102.707 Y137.865 E5.25555
G1 X102.549 Y137.949 E5.27208
G1 X101.306 Y138.326 E5.39227
G1 X100.012 Y138.454 E5.51247
G1 X97.390 Y138.195 E5.75622
G1 X97.390 Y137.903 E5.78325
G1 X96.330 Y137.336 E5.89443
G1 X95.325 Y136.512 E6.01462
G1 X94.501 Y135.507 E6.13483
G1 X93.916 Y134.414 E6.24946
G1 X94.478 Y134.117 F7800.000
G1 X94.137 Y132.993 E6.35809 F540.000
G1 X94.022 Y131.825 E6.46669
