; generated by Slic3r 1.1.7 on 2015-01-02 at 08:14:27

; perimeters extrusion width = 0.40mm
; infill extrusion width = 0.53mm
; solid infill extrusion width = 0.53mm
; top infill extrusion width = 0.53mm

G21 ; set units to millimeters
M107
M190 S110 ; wait for bed temperature to be reached
M104 S235 ; set temperature
G28 ; home all axes
G1 Z5 F5000 ; lift nozzle

M109 S235 ; wait for temperature to be reached
G90 ; use absolute coordinates
G92 E0
M82 ; use absolute distances for extrusion
G1 F1800.000 E-1.00000
G92 E0
G1 Z0.350 F7800.000
G1 X51.669 Y69.548 F7800.000
G1 E1.00000 F1800.000
G1 X53.822 Y68.753 E1.21230 F1080.000
G1 X55.011 Y68.645 E1.32272
G1 X118.244 Y68.645 E7.17123
G1 X127.587 Y68.647 E8.03540 F1080.000
G1 X128.530 Y68.677 E8.12266
G1 X129.331 Y68.753 E8.19701
G1 X130.145 Y68.882 E8.27330
G1 X130.972 Y69.073 E8.35182
G1 X131.809 Y69.334 E8.43286
G1 X132.646 Y69.673 E8.51642
G1 X133.474 Y70.095 E8.60232
G1 X134.276 Y70.605 E8.69026
G1 X135.036 Y71.198 E8.77943
G1 X135.737 Y71.868 E8.86909
G1 X136.365 Y72.600 E8.95829
G1 X136.910 Y73.377 E9.04613
G1 X137.368 Y74.184 E9.13193
G1 X137.549 Y74.556 E9.17015
G1 X149.890 Y100.722 E11.84594
G1 X150.807 Y102.935 E12.06750
G1 X151.255 Y104.608 E12.22772
G1 X151.568 Y106.983 E12.44928
G1 X151.568 Y108.715 E12.60950
G1 X151.255 Y111.090 E12.83106
G1 X150.807 Y112.763 E12.99128
G1 X149.890 Y114.977 E13.21285
G1 X149.331 Y116.042 E13.32415
G1 X141.384 Y128.324 E14.67716
G1 X139.822 Y130.006 E14.88945
G1 X137.781 Y131.056 E15.10175
G1 X135.812 Y131.355 E15.28594
G1 X64.186 Y131.346 E21.91071
G1 X61.926 Y130.949 E22.12301
G1 X59.935 Y129.805 E22.33530
G1 X58.616 Y128.315 E22.51936
G1 X50.669 Y116.033 E23.87237
G1 X50.110 Y114.968 E23.98367
G1 X49.193 Y112.755 E24.20524
G1 X48.745 Y111.081 E24.36547
G1 X48.375 Y107.840 E24.66717
G1 X48.375 Y75.281 E27.67862
G1 X48.772 Y73.020 E27.89092
G1 X49.916 Y71.030 E28.10322
G1 X51.623 Y69.587 E28.30996
G1 F1800.000 E27.30996
G92 E0
G1 X133.318 Y106.010 F7800.000
G1 E1.00000 F1800.000
G1 X134.664 Y104.664 E1.17611 F540.000
G1 X136.503 Y104.171 E1.35222
G1 X137.896 Y104.544 E1.48562
G1 X138.342 Y104.664 E1.52834 F540.000
G1 X139.689 Y106.010 E1.70444
G1 X140.182 Y107.849 E1.88056
G1 X139.689 Y109.688 E2.05667
G1 X138.342 Y111.035 E2.23278
G1 X136.503 Y111.528 E2.40889
G1 X134.664 Y111.035 E2.58500
G1 X133.318 Y109.688 E2.76111
G1 X132.825 Y107.849 E2.93723
G1 X133.302 Y106.068 E3.10779
G1 X133.887 Y106.339 F7800.000
G1 X134.993 Y105.233 E3.25239 F540.000
G1 X136.222 Y104.904 E3.37004
G1 X136.503 Y104.829 E3.39700 F540.000
G1 X138.013 Y105.233 E3.54161
G1 X139.119 Y106.339 E3.68621
G1 X139.524 Y107.849 E3.83082
G1 X139.119 Y109.359 E3.97543
G1 X138.013 Y110.465 E4.12003
G1 X136.503 Y110.869 E4.26464
G1 X134.993 Y110.465 E4.40925
G1 X133.887 Y109.359 E4.55385
G1 X133.483 Y107.849 E4.69846
G1 X133.872 Y106.397 E4.83752
G1 X134.457 Y106.668 F7800.000
G1 X135.322 Y105.803 E4.95062 F378.000
G1 X136.503 Y105.487 E5.06372
G1 X137.567 Y105.772 E5.16561
G1 X137.684 Y105.803 E5.17682 F378.000
G1 X138.549 Y106.668 E5.28992
G1 X138.866 Y107.849 E5.40303
G1 X138.549 Y109.030 E5.51613
G1 X137.684 Y109.895 E5.62923
G1 X136.503 Y110.211 E5.74233
G1 X135.322 Y109.895 E5.85543
G1 X134.457 Y109.030 E5.96853
G1 X134.141 Y107.849 E6.08164
G1 X134.442 Y106.726 E6.18919
G1 F1800.000 E5.18919
G92 E0
G1 X137.627 Y105.666 F7800.000
G1 X141.613 Y112.573 F7800.000
G1 E1.00000 F1800.000
G1 X141.139 Y113.190 E1.07201 F540.000
G1 X140.011 Y114.109 E1.20650
G1 X139.407 Y114.645 E1.28123
G1 X138.833 Y115.186 E1.35417
G1 X138.291 Y115.733 E1.42540
G1 X137.780 Y116.286 E1.49502
G1 X137.302 Y116.845 E1.56310
G1 X136.855 Y117.411 E1.62978
G1 X136.441 Y117.984 E1.69514
G1 X136.060 Y118.564 E1.75934
G1 X135.712 Y119.150 E1.82244
G1 X135.398 Y119.745 E1.88459
G1 X135.119 Y120.346 E1.94594
G1 X134.875 Y120.955 E2.00655
G1 X134.667 Y121.570 E2.06658
G1 X134.497 Y122.191 E2.12617
G1 X134.321 Y123.098 E2.21161
G1 X129.081 Y123.097 E2.69627
G1 X129.081 Y77.090 E6.95151
G1 X129.478 Y77.325 E6.99423
G1 X129.602 Y77.415 E7.00838 F540.000
G1 X129.809 Y77.619 E7.03524
G1 X129.983 Y77.877 E7.06402
G1 X130.132 Y78.221 E7.09869
G1 X130.194 Y78.433 E7.11917
G1 X130.286 Y78.947 E7.16742
G1 X130.309 Y79.229 E7.19360
G1 X130.315 Y85.508 E7.77439
G1 X130.365 Y86.402 E7.85712
G1 X130.459 Y87.231 E7.93436
G1 X130.620 Y88.180 E8.02335
G1 X130.825 Y89.061 E8.10700
G1 X131.081 Y89.935 E8.19126
G1 X131.387 Y90.803 E8.27634
G1 X131.742 Y91.662 E8.36241
G1 X132.147 Y92.514 E8.44965
G1 X132.601 Y93.358 E8.53826
G1 X133.102 Y94.194 E8.62840
G1 X133.650 Y95.022 E8.72024
G1 X134.245 Y95.842 E8.81395
G1 X134.887 Y96.654 E8.90968
G1 X135.575 Y97.459 E9.00759
G1 X136.309 Y98.256 E9.10780
G1 X137.088 Y99.046 E9.21047
G1 X137.913 Y99.830 E9.31569
G1 X138.783 Y100.607 E9.42362
G1 X139.698 Y101.379 E9.53433
G1 X141.145 Y102.517 E9.70459
G1 X142.344 Y104.079 E9.88667
G1 X143.097 Y105.897 E10.06875
G1 X143.354 Y107.849 E10.25083
G1 X143.097 Y109.801 E10.43291
G1 X142.344 Y111.620 E10.61499
G1 X141.649 Y112.525 E10.72052
G1 X142.153 Y112.912 F7800.000
G1 X141.594 Y113.640 E10.80543 F540.000
G1 X140.426 Y114.591 E10.94476
G1 X139.836 Y115.114 E11.01770
G1 X139.277 Y115.641 E11.08873
G1 X138.750 Y116.172 E11.15794
G1 X138.256 Y116.708 E11.22541
G1 X137.793 Y117.249 E11.29123
G1 X137.362 Y117.794 E11.35550
G1 X136.964 Y118.345 E11.41832
G1 X136.599 Y118.900 E11.47983
G1 X136.267 Y119.461 E11.54011
G1 X135.968 Y120.027 E11.59931
G1 X135.702 Y120.598 E11.65757
G1 X135.472 Y121.175 E11.71498
G1 X135.276 Y121.756 E11.77171
G1 X135.114 Y122.341 E11.82790
G1 X134.989 Y122.931 E11.88366
G1 X134.867 Y123.733 E11.95871
G1 X128.445 Y123.733 E12.55270
G1 X128.445 Y122.489 E12.66772
G1 X128.445 Y76.313 E16.93861 F540.000
G1 X128.911 Y76.410 E16.98266
G1 X129.418 Y76.577 E17.03200
G1 X129.634 Y76.679 E17.05412
G1 X130.001 Y76.920 E17.09473
G1 X130.298 Y77.212 E17.13328
G1 X130.541 Y77.571 E17.17337
G1 X130.734 Y78.017 E17.21825
G1 X130.811 Y78.276 E17.24330
G1 X130.918 Y78.875 E17.29956
G1 X130.945 Y79.203 E17.32995
G1 X130.950 Y85.490 E17.91151
G1 X130.998 Y86.348 E17.99092
G1 X131.096 Y87.203 E18.07053
G1 X131.243 Y88.053 E18.15038
G1 X131.440 Y88.899 E18.23071
G1 X131.686 Y89.740 E18.31172
G1 X131.981 Y90.575 E18.39363
G1 X132.324 Y91.404 E18.47663
G1 X132.715 Y92.227 E18.56092
G1 X133.153 Y93.045 E18.64669
G1 X133.639 Y93.855 E18.73411
G1 X134.172 Y94.660 E18.82337
G1 X134.752 Y95.458 E18.91462
G1 X135.378 Y96.250 E19.00802
G1 X136.051 Y97.037 E19.10372
G1 X136.769 Y97.818 E19.20185
G1 X137.533 Y98.593 E19.30254
G1 X138.344 Y99.363 E19.40591
G1 X139.200 Y100.127 E19.51207
G1 X140.101 Y100.887 E19.62112
G1 X141.599 Y102.063 E19.79725
G1 X142.899 Y103.758 E19.99481
G1 X143.716 Y105.731 E20.19237
G1 X143.995 Y107.849 E20.38993
G1 X143.716 Y109.967 E20.58749
G1 X142.899 Y111.940 E20.78505
G1 X142.190 Y112.864 E20.89277
G1 X142.694 Y113.251 F7800.000
G1 X142.050 Y114.090 E20.99057 F378.000
G1 X140.840 Y115.072 E21.13473
G1 X140.265 Y115.583 E21.20588
G1 X139.210 Y116.612 E21.34218
G1 X138.731 Y117.131 E21.40751
G1 X138.284 Y117.653 E21.47105
G1 X137.869 Y118.178 E21.53292
G1 X137.487 Y118.706 E21.59320
G1 X137.138 Y119.237 E21.65202
G1 X136.821 Y119.772 E21.70949
G1 X136.537 Y120.309 E21.76574
G1 X136.286 Y120.850 E21.82091
G1 X136.068 Y121.395 E21.87512
G1 X135.884 Y121.942 E21.92854
G1 X135.732 Y122.492 E21.98133
G1 X135.614 Y123.045 E22.03362
G1 X135.530 Y123.601 E22.08560
G1 X135.460 Y124.369 E22.15695
G1 X127.809 Y124.368 E22.86461
G1 X127.809 Y75.627 E27.37271
G1 X128.368 Y75.672 E27.42451
G1 X128.727 Y75.723 E27.45812 F378.000
G1 X129.377 Y75.882 E27.51995
G1 X129.666 Y75.991 E27.54853
G1 X129.933 Y76.117 E27.57583
G1 X130.177 Y76.262 E27.60212
G1 X130.401 Y76.424 E27.62769
G1 X130.604 Y76.606 E27.65287
G1 X130.788 Y76.806 E27.67798
G1 X130.953 Y77.025 E27.70340
G1 X131.099 Y77.266 E27.72945
G1 X131.227 Y77.528 E27.75642
G1 X131.337 Y77.812 E27.78459
G1 X131.498 Y78.450 E27.84542
G1 X131.580 Y79.176 E27.91304
G1 X131.586 Y85.472 E28.49537
G1 X131.632 Y86.294 E28.57147
G1 X131.725 Y87.112 E28.64766
G1 X131.866 Y87.927 E28.72415
G1 X132.055 Y88.738 E28.80116
G1 X132.291 Y89.545 E28.87892
G1 X132.574 Y90.348 E28.95766
G1 X132.905 Y91.146 E29.03759
G1 X133.282 Y91.941 E29.11892
G1 X133.706 Y92.731 E29.20185
G1 X134.177 Y93.516 E29.28656
G1 X134.695 Y94.297 E29.37323
G1 X135.259 Y95.074 E29.46203
G1 X135.869 Y95.847 E29.55310
G1 X136.526 Y96.615 E29.64659
G1 X137.229 Y97.379 E29.74263
G1 X137.979 Y98.139 E29.84135
G1 X138.774 Y98.895 E29.94285
G1 X139.616 Y99.647 E30.04726
G1 X140.504 Y100.395 E30.15464
G1 X142.052 Y101.610 E30.33664
G1 X143.454 Y103.437 E30.54968
G1 X144.336 Y105.565 E30.76272
G1 X144.636 Y107.849 E30.97576
G1 X144.336 Y110.133 E31.18880
G1 X143.454 Y112.261 E31.40184
G1 X142.731 Y113.204 E31.51175
G1 F1800.000 E30.51175
G92 E0
G1 X128.689 Y75.842 F7800.000
G1 X130.356 Y89.145 F7800.000
G1 E1.00000 F1800.000
G1 X130.404 Y89.193 E1.00627 F1080.000
G1 X129.543 Y89.234 E1.08606
G1 X130.815 Y90.506 E1.25245
G1 X129.521 Y90.115 E1.37739
G1 X131.423 Y92.017 E1.62610
G1 X129.521 Y91.921 F7800.000
G1 X134.618 Y97.018 E2.29276 F1080.000
G1 X132.423 Y93.920 F7800.000
G1 X129.521 Y91.018 E2.67234 F1080.000
G1 X129.521 Y92.824 F7800.000
G1 X142.638 Y105.940 E4.38796 F1080.000
G1 X142.798 Y107.003 E4.48741
G1 X129.521 Y93.727 E6.22402
G1 X129.521 Y94.629 E6.30752
G1 X142.890 Y107.998 E8.05613
G1 X142.785 Y108.796 E8.13055
G1 X140.199 Y106.210 E8.46882
G1 X140.529 Y107.443 E8.58691
G1 X142.680 Y109.593 E8.86821
G1 X142.434 Y110.250 E8.93309
G1 X140.510 Y108.327 E9.18471
G1 X140.319 Y109.039 E9.25289
G1 X142.169 Y110.889 E9.49488
G1 X141.879 Y111.501 E9.55757
G1 X140.128 Y109.751 E9.78654
G1 X139.738 Y110.263 E9.84612
G1 X141.487 Y112.012 E10.07492
G1 X141.095 Y112.523 E10.13447
G1 X139.286 Y110.714 E10.37105
G1 X138.835 Y111.166 E10.43009
G1 X140.672 Y113.002 E10.67032
G1 X140.174 Y113.407 E10.72967
G1 X138.276 Y111.509 E10.97799
G1 X137.564 Y111.700 E11.04616
G1 X139.678 Y113.815 E11.32279
G1 X139.200 Y114.239 E11.38194
G1 X136.852 Y111.891 E11.68909
G1 X135.873 Y111.815 E11.77984
G1 X138.733 Y114.674 E12.15385
G1 X138.277 Y115.121 E12.21289
G1 X134.640 Y111.485 E12.68855
G1 X132.868 Y109.712 F7800.000
G1 X129.521 Y106.366 E13.12625 F1080.000
G1 X129.521 Y107.269 E13.20975
G1 X137.832 Y115.580 E14.29685
G1 X137.401 Y116.051 E14.35595
G1 X129.521 Y108.172 E15.38662
G1 X129.521 Y109.074 E15.47012
G1 X136.985 Y116.538 E16.44633
G1 X136.585 Y117.041 E16.50577
G1 X129.521 Y109.977 E17.42974
G1 X129.521 Y110.880 E17.51325
G1 X136.202 Y117.561 E18.38714
G1 X135.837 Y118.099 E18.44726
G1 X129.521 Y111.783 E19.27342
G1 X129.521 Y112.686 E19.35692
G1 X135.492 Y118.656 E20.13790
G1 X135.168 Y119.235 E20.19926
G1 X129.521 Y113.588 E20.93790
G1 X129.521 Y114.491 E21.02140
G1 X134.869 Y119.838 E21.72081
G1 X134.595 Y120.468 E21.78428
G1 X129.521 Y115.394 E22.44795
G1 X129.521 Y116.297 E22.53145
G1 X134.352 Y121.127 E23.16325
G1 X134.141 Y121.820 E23.23020
G1 X129.521 Y117.200 E23.83452
G1 X129.521 Y118.103 E23.91802
G1 X133.976 Y122.558 E24.50074
G1 X133.173 Y122.657 E24.57563
G1 X129.521 Y119.005 E25.05325
G1 X129.521 Y119.908 E25.13675
G1 X132.270 Y122.657 E25.49628
G1 X131.367 Y122.657 E25.57978
G1 X129.521 Y120.811 E25.82121
G1 X129.521 Y121.714 E25.90471
G1 X130.464 Y122.657 E26.02804
G1 X129.561 Y122.657 E26.11155
G1 X129.521 Y122.617 E26.11678
G1 X132.537 Y108.479 F7800.000
G1 X129.521 Y105.463 E26.51125 F1080.000
G1 X129.521 Y104.560 E26.59475
G1 X132.462 Y107.501 E26.97936
G1 X132.653 Y106.789 E27.04754
G1 X129.521 Y103.658 E27.45710
G1 X129.521 Y102.755 E27.54060
G1 X132.843 Y106.077 E27.97512
G1 X133.187 Y105.517 E28.03583
G1 X129.521 Y101.852 E28.51527
G1 X129.521 Y100.949 E28.59877
G1 X133.638 Y105.066 E29.13726
G1 X134.090 Y104.615 E29.19630
G1 X129.521 Y100.046 E29.79383
G1 X129.521 Y99.143 E29.87733
G1 X134.602 Y104.224 E30.54185
G1 X135.314 Y104.033 E30.61003
G1 X129.521 Y98.241 E31.36768
G1 X129.521 Y97.338 E31.45119
G1 X136.026 Y103.842 E32.30197
G1 X136.910 Y103.823 E32.38373
G1 X129.521 Y96.435 E33.35012
G1 X129.521 Y95.532 E33.43362
G1 X138.143 Y104.154 E34.56132
G1 X138.790 Y101.190 F7800.000
G1 X141.999 Y104.399 E34.98103 F1080.000
G1 X129.893 Y88.742 F7800.000
G1 X129.778 Y87.403 E35.17168 F360.000
G1 X129.728 Y86.542 E35.29403
G1 X129.726 Y86.542 F7800.000
G1 X129.698 Y85.518 E35.34783 F360.000
G1 X129.695 Y79.255 E35.67659
G1 X129.646 Y78.573 E35.71246
G1 X129.534 Y77.991 E35.74356
G1 F1800.000 E34.74356
G92 E0
G1 X116.409 Y81.508 F7800.000
G1 E1.00000 F1800.000
G1 X116.098 Y82.712 E1.11501 F378.000
G1 X115.234 Y83.577 E1.22811
G1 X114.053 Y83.893 E1.34121
G1 X112.988 Y83.608 E1.44310
G1 X112.871 Y83.577 E1.45432
G1 X112.007 Y82.712 E1.56742
G1 X111.690 Y81.531 E1.68052
G1 X112.007 Y80.350 E1.79362
G1 X112.871 Y79.485 E1.90672
G1 X113.666 Y79.272 E1.98283
G1 X113.666 Y79.065 E2.00198
G1 X115.234 Y79.485 E2.15207
G1 X116.098 Y80.350 E2.26517 F378.000
G1 X116.393 Y81.450 E2.37053
G1 X115.337 Y79.099 F7800.000
G1 F1800.000 E1.37053
G92 E0
G1 X84.415 Y81.531 F7800.000
G1 E1.00000 F1800.000
G1 X84.098 Y82.712 E1.11310 F378.000
G1 X83.234 Y83.577 E1.22620
G1 X82.053 Y83.893 E1.33931
G1 X80.988 Y83.608 E1.44119
G1 X80.871 Y83.577 E1.45241
G1 X80.007 Y82.712 E1.56551
G1 X79.690 Y81.531 E1.67861
G1 X80.007 Y80.350 E1.79171
G1 X80.092 Y80.264 E1.80292
G1 X80.871 Y79.485 E1.90481
G1 X81.666 Y79.272 E1.98092
G1 X81.666 Y79.065 E2.00007
G1 X83.234 Y79.485 E2.15016
G1 X84.098 Y80.350 E2.26327 F378.000
G1 X84.399 Y81.473 E2.37082
G1 X83.337 Y79.099 F7800.000
G1 F1800.000 E1.37082
G92 E0
G1 X82.053 Y114.357 F7800.000
G1 E1.00000 F1800.000
G1 X82.170 Y114.388 E1.01121 F378.000
G1 X83.234 Y114.673 E1.11310 F378.000
G1 X84.098 Y115.538 E1.22620
G1 X84.415 Y116.719 E1.33930
G1 X84.098 Y117.900 E1.45241
G1 X83.234 Y118.765 E1.56551
G1 X82.053 Y119.081 E1.67861
G1 X80.871 Y118.765 E1.79171
G1 X80.007 Y117.900 E1.90481
G1 X79.690 Y116.719 E2.01791
G1 X80.007 Y115.538 E2.13102
G1 X80.871 Y114.673 E2.24412
G1 X81.995 Y114.372 E2.35167
G1 X82.404 Y114.064 F7800.000
G1 X91.928 Y110.118 F7800.000
G1 X91.551 Y108.874 E2.47186 F540.000
G1 X91.423 Y107.581 E2.59206
G1 X91.551 Y106.288 E2.71226
G1 X91.928 Y105.044 E2.83245
G1 X92.541 Y103.898 E2.95265
G1 X93.365 Y102.893 E3.07284
G1 X94.370 Y102.069 E3.19303
G1 X95.516 Y101.456 E3.31324
G1 X96.759 Y101.079 E3.43344
G1 X98.052 Y100.952 E3.55360
G1 X98.230 Y100.969 E3.57013
G1 X99.346 Y101.079 E3.67380 F540.000
G1 X100.589 Y101.456 E3.79400
G1 X101.735 Y102.069 E3.91419
G1 X102.740 Y102.893 E4.03439
G1 X103.564 Y103.898 E4.15459
G1 X104.177 Y105.044 E4.27478
G1 X104.554 Y106.288 E4.39497
G1 X104.682 Y107.581 E4.51517
G1 X104.423 Y110.204 E4.75892
G1 X104.131 Y110.204 E4.78595
G1 X103.564 Y111.264 E4.89713
G1 X102.740 Y112.268 E5.01733
G1 X101.735 Y113.093 E5.13753
G1 X98.288 Y114.936 E5.49906
G1 X98.288 Y114.233 E5.56402
G1 X96.759 Y114.083 E5.70611
G1 X95.516 Y113.705 E5.82630
G1 X94.370 Y113.093 E5.94649
G1 X93.365 Y112.268 E6.06669
G1 X92.541 Y111.264 E6.18688
G1 X91.956 Y110.171 E6.30153
G1 X92.518 Y109.873 F7800.000
G1 X92.177 Y108.750 E6.41014 F540.000
G1 X92.062 Y107.581 E6.51875
G1 X92.177 Y106.412 E6.62737
G1 X92.518 Y105.289 E6.73598
G1 X93.072 Y104.253 E6.84460
G1 X93.817 Y103.345 E6.95321
G1 X94.724 Y102.600 E7.06182
G1 X95.760 Y102.047 E7.17045
G1 X96.884 Y101.706 E7.27906
G1 X97.000 Y101.694 E7.28981
G1 X98.052 Y101.591 E7.38766 F540.000
G1 X99.221 Y101.706 E7.49628
G1 X100.345 Y102.047 E7.60490
G1 X101.381 Y102.600 E7.71351
G1 X102.288 Y103.345 E7.82212
G1 X103.033 Y104.253 E7.93074
G1 X103.587 Y105.289 E8.03935
G1 X103.928 Y106.412 E8.14796
G1 X104.043 Y107.581 E8.25658
G1 X103.847 Y109.568 E8.44126
G1 X103.680 Y109.568 E8.45677
G1 X103.587 Y109.873 E8.48627
G1 X103.033 Y110.909 E8.59489
G1 X102.288 Y111.817 E8.70350
G1 X101.381 Y112.562 E8.81212
G1 X98.924 Y113.875 E9.06978
G1 X98.924 Y113.486 E9.10581
G1 X98.053 Y113.571 E9.18677
G1 X96.884 Y113.456 E9.29539
G1 X95.760 Y113.115 E9.40400
G1 X94.724 Y112.562 E9.51261
G1 X93.817 Y111.817 E9.62123
