; generated by Slic3r 1.1.7 on 2015-01-01 at 16:28:06

; perimeters extrusion width = 0.40mm
; infill extrusion width = 0.53mm
; solid infill extrusion width = 0.53mm
; top infill extrusion width = 0.53mm

G21 ; set units to millimeters
M107
M190 S110 ; wait for bed temperature to be reached
M104 S235 ; set temperature
G28 ; home all axes
G1 Z5 F5000 ; lift nozzle

M109 S235 ; wait for temperature to be reached
G90 ; use absolute coordinates
G92 E0
M82 ; use absolute distances for extrusion
G1 F1800.000 E-1.00000
G92 E0
G1 Z0.350 F7800.000
G1 X48.858 Y40.418 F7800.000
G1 E1.00000 F1800.000
G1 X50.611 Y38.936 E1.21230 F1080.000
G1 X52.764 Y38.140 E1.42459
G1 X53.953 Y38.033 E1.53502
G1 X106.692 Y38.033 E6.41293
G1 X127.466 Y38.070 E8.33432 F1080.000
G1 X127.849 Y38.101 E8.36983
G1 X128.267 Y38.146 E8.40868
G1 X129.423 Y38.347 E8.51722
G1 X130.228 Y38.558 E8.59423
G1 X131.045 Y38.840 E8.67415
G1 X131.861 Y39.198 E8.75661
G1 X132.410 Y39.489 E8.81398
G1 X133.212 Y39.998 E8.90190
G1 X133.972 Y40.592 E8.99110
G1 X134.685 Y41.273 E9.08229
G1 X135.301 Y41.993 E9.16992
G1 X135.845 Y42.770 E9.25769
G1 X136.304 Y43.577 E9.34356
G1 X136.677 Y44.397 E9.42685
G1 X136.910 Y45.028 E9.48906
G1 X146.005 Y72.797 E12.19169
G1 X146.278 Y73.996 E12.30543
G1 X146.628 Y76.729 E12.56025
G1 X152.663 Y155.273 E19.84630
G1 X152.626 Y156.647 E19.97346
G1 X152.313 Y159.022 E20.19498
G1 X151.865 Y160.695 E20.35520
G1 X150.948 Y162.908 E20.57677
G1 X150.388 Y163.975 E20.68822
G1 X142.441 Y176.250 E22.04068
G1 X140.879 Y177.932 E22.25298
G1 X138.838 Y178.981 E22.46527
G1 X136.872 Y179.279 E22.64920
G1 X65.218 Y179.278 E29.27653
G1 X62.957 Y178.880 E29.48883
G1 X60.967 Y177.736 E29.70113
G1 X59.649 Y176.247 E29.88507
G1 X51.702 Y163.965 E31.23808
G1 X51.143 Y162.900 E31.34938
G1 X50.226 Y160.687 E31.57095
G1 X49.777 Y159.013 E31.73118
G1 X49.471 Y156.684 E31.94849
G1 X49.410 Y155.949 E32.01669
G1 X47.318 Y77.228 E39.30023
G1 X47.318 Y44.668 E42.31168
G1 X47.714 Y42.408 E42.52398
G1 X48.828 Y40.470 E42.73072
G1 F1800.000 E41.73072
G92 E0
G1 X65.783 Y81.846 F7800.000
G1 E1.00000 F1800.000
G1 X60.461 Y81.846 E1.49225 F540.000
G1 X57.800 Y77.237 E1.98450
G1 X60.461 Y72.628 E2.47675
G1 X65.783 Y72.628 E2.96900
G1 X68.444 Y77.237 E3.46125
G1 X65.813 Y81.794 E3.94795
G1 X65.416 Y81.210 F7800.000
G1 X60.828 Y81.210 E4.37232 F540.000
G1 X58.534 Y77.237 E4.79669
G1 X60.828 Y73.263 E5.22105
G1 X65.416 Y73.263 E5.64542
G1 X67.710 Y77.237 E6.06979
G1 X65.446 Y81.158 E6.48860
G1 X65.049 Y80.575 F7800.000
G1 X61.195 Y80.575 E6.84509 F378.000
G1 X59.268 Y77.237 E7.20157
G1 X61.195 Y73.899 E7.55805
G1 X65.049 Y73.899 E7.91454
G1 X66.976 Y77.237 E8.27102
G1 X65.079 Y80.523 E8.62195
G1 X64.979 Y80.968 F7800.000
G1 X85.575 Y50.918 F7800.000
G1 X83.281 Y54.892 E9.04632 F540.000
G1 X78.693 Y54.892 E9.47068
G1 X76.399 Y50.918 E9.89505
G1 X78.693 Y46.945 E10.31942
G1 X83.281 Y46.945 E10.74378
G1 X85.545 Y50.867 E11.16260
G1 X84.841 Y50.918 F7800.000
G1 X82.914 Y54.256 E11.51908 F378.000
G1 X79.060 Y54.256 E11.87556
G1 X77.133 Y50.918 E12.23204
G1 X79.060 Y47.581 E12.58853
G1 X82.914 Y47.581 E12.94501
G1 X84.811 Y50.867 E13.29594
G1 X85.148 Y51.176 F7800.000
G1 F1800.000 E12.29594
G92 E0
G1 X117.575 Y50.918 F7800.000
G1 E1.00000 F1800.000
G1 X115.281 Y54.892 E1.42437 F540.000
G1 X110.693 Y54.892 E1.84873
G1 X108.399 Y50.918 E2.27310
G1 X110.693 Y46.945 E2.69746
G1 X115.281 Y46.945 E3.12183
G1 X117.545 Y50.867 E3.54065
G1 X116.841 Y50.918 F7800.000
G1 X114.914 Y54.256 E3.89713 F378.000
G1 X111.060 Y54.256 E4.25361
G1 X109.133 Y50.918 E4.61009
G1 X111.060 Y47.581 E4.96657
G1 X114.914 Y47.581 E5.32306 F378.000
G1 X116.811 Y50.867 E5.67399
G1 F1800.000 E4.67399
G92 E0
G1 X110.860 Y47.234 F7800.000
G1 X125.505 Y77.237 F7800.000
G1 E1.00000 F1800.000
G1 X128.166 Y72.628 E1.49225 F540.000
G1 X133.488 Y72.628 E1.98450
G1 X136.150 Y77.237 E2.47675
G1 X133.488 Y81.846 E2.96900
G1 X128.166 Y81.846 E3.46125
G1 X125.535 Y77.289 E3.94795
G1 X126.239 Y77.237 F7800.000
G1 X128.533 Y73.263 E4.37232 F540.000
G1 X133.121 Y73.263 E4.79668
G1 X135.416 Y77.237 E5.22105
G1 X133.121 Y81.210 E5.64542
G1 X128.533 Y81.210 E6.06978
G1 X126.269 Y77.289 E6.48860
G1 X126.973 Y77.237 F7800.000
G1 X128.900 Y73.899 E6.84508 F378.000
G1 X132.755 Y73.899 E7.20157
G1 X134.682 Y77.237 E7.55805
G1 X132.755 Y80.575 E7.91453
G1 X128.900 Y80.575 E8.27102
G1 X127.003 Y77.289 E8.62195
G1 X126.667 Y76.980 F7800.000
G1 X115.648 Y81.497 F7800.000
G1 X118.309 Y86.107 E9.11420 F540.000
G1 X115.648 Y90.716 E9.60645
G1 X110.326 Y90.716 E10.09870
G1 X107.665 Y86.107 E10.59095
G1 X110.326 Y81.497 E11.08320
G1 X115.588 Y81.497 E11.56990
G1 X115.281 Y82.133 F7800.000
G1 X117.575 Y86.107 E11.99427 F540.000
G1 X115.281 Y90.080 E12.41863
G1 X110.693 Y90.080 E12.84300
G1 X108.399 Y86.107 E13.26736
G1 X110.693 Y82.133 E13.69173
G1 X115.221 Y82.133 E14.11055
G1 X114.914 Y82.769 F7800.000
G1 X116.841 Y86.107 E14.46703 F378.000
G1 X114.914 Y89.444 E14.82351
G1 X111.060 Y89.444 E15.17999
G1 X109.133 Y86.107 E15.53647
G1 X111.060 Y82.769 E15.89296
G1 X114.854 Y82.769 E16.24389
G1 X115.290 Y82.632 F7800.000
G1 X103.207 Y79.217 F7800.000
G1 X103.119 Y79.505 E16.27172 F540.000
G1 X102.507 Y80.651 E16.39192
G1 X101.682 Y81.656 E16.51211
G1 X100.678 Y82.480 E16.63231
G1 X99.532 Y83.093 E16.75250
G1 X98.288 Y83.470 E16.87269
G1 X96.995 Y83.598 E16.99289
G1 X95.702 Y83.470 E17.11308
G1 X94.458 Y83.093 E17.23328
G1 X93.312 Y82.480 E17.35347
G1 X93.144 Y82.343 E17.37355
G1 X92.307 Y81.656 E17.47367
G1 X91.483 Y80.651 E17.59386
G1 X90.870 Y79.505 E17.71405
G1 X90.556 Y78.470 E17.81417
G1 X90.493 Y78.262 E17.83425
G1 X90.366 Y76.969 E17.95444
G1 X90.493 Y75.675 E18.07464
G1 X90.870 Y74.432 E18.19483
G1 X91.483 Y73.286 E18.31503
G1 X92.307 Y72.281 E18.43523
G1 X93.144 Y71.594 E18.53534
G1 X93.312 Y71.457 E18.55542
G1 X94.458 Y70.844 E18.67561
G1 X95.702 Y70.467 E18.79581
G1 X96.995 Y70.339 E18.91600
G1 X98.072 Y70.446 E19.01611
G1 X98.288 Y70.467 E19.03620 F540.000
G1 X99.532 Y70.844 E19.15639
G1 X100.678 Y71.457 E19.27658
G1 X101.682 Y72.281 E19.39678
G1 X102.507 Y73.286 E19.51697
G1 X103.119 Y74.432 E19.63717
G1 X103.497 Y75.675 E19.75736
G1 X103.624 Y76.968 E19.87755
G1 X103.497 Y78.262 E19.99775
G1 X103.224 Y79.160 E20.08456
G1 X102.598 Y79.033 F7800.000
G1 X102.529 Y79.261 E20.10661 F540.000
G1 X101.976 Y80.297 E20.21522
G1 X101.231 Y81.204 E20.32384
G1 X100.323 Y81.949 E20.43245
G1 X99.287 Y82.503 E20.54106
G1 X98.163 Y82.844 E20.64968
G1 X96.995 Y82.959 E20.75829
G1 X95.826 Y82.844 E20.86690
G1 X94.702 Y82.503 E20.97552
G1 X93.667 Y81.949 E21.08413
G1 X93.547 Y81.851 E21.09843
G1 X92.759 Y81.204 E21.19275
G1 X92.014 Y80.297 E21.30136
G1 X91.460 Y79.261 E21.40997
G1 X91.120 Y78.137 E21.51859
G1 X91.004 Y76.968 E21.62720
G1 X91.120 Y75.800 E21.73582
G1 X91.460 Y74.676 E21.84443
G1 X92.014 Y73.640 E21.95305
G1 X92.661 Y72.852 E22.04737
G1 X92.759 Y72.733 E22.06166
G1 X93.667 Y71.988 E22.17027
G1 X94.702 Y71.434 E22.27889
G1 X95.826 Y71.093 E22.38750
G1 X96.841 Y70.993 E22.48182
G1 X96.995 Y70.978 E22.49612 F540.000
G1 X98.163 Y71.093 E22.60473
G1 X99.287 Y71.434 E22.71334
G1 X100.323 Y71.988 E22.82196
G1 X101.231 Y72.733 E22.93057
G1 X101.976 Y73.640 E23.03918
G1 X102.529 Y74.676 E23.14780
G1 X102.870 Y75.800 E23.25641
G1 X102.985 Y76.968 E23.36503
G1 X102.870 Y78.137 E23.47364
G1 X102.616 Y78.975 E23.55467
G1 X101.990 Y78.848 F7800.000
G1 X101.939 Y79.016 E23.57092 F378.000
G1 X101.445 Y79.942 E23.66795
G1 X100.779 Y80.753 E23.76498
G1 X99.968 Y81.418 E23.86202
G1 X99.043 Y81.913 E23.95905
G1 X98.039 Y82.217 E24.05608
G1 X96.995 Y82.320 E24.15312
G1 X95.951 Y82.217 E24.25015
G1 X94.947 Y81.913 E24.34718
G1 X94.022 Y81.418 E24.44422
G1 X93.951 Y81.360 E24.45272
G1 X93.211 Y80.753 E24.54125
G1 X92.545 Y79.942 E24.63829
G1 X92.051 Y79.017 E24.73532
G1 X91.773 Y78.101 E24.82385
G1 X91.746 Y78.013 E24.83235
G1 X91.643 Y76.968 E24.92939
G1 X91.746 Y75.924 E25.02642
G1 X92.051 Y74.920 E25.12345
G1 X92.545 Y73.995 E25.22049
G1 X93.211 Y73.184 E25.31752
G1 X93.951 Y72.577 E25.40605
G1 X94.022 Y72.519 E25.41456
G1 X94.947 Y72.024 E25.51159
G1 X95.951 Y71.720 E25.60862
G1 X96.995 Y71.617 E25.70566
G1 X97.947 Y71.711 E25.79419
G1 X98.039 Y71.720 E25.80269 F378.000
G1 X99.043 Y72.024 E25.89972
G1 X99.968 Y72.519 E25.99676
G1 X100.779 Y73.184 E26.09379
G1 X101.445 Y73.995 E26.19082
G1 X101.939 Y74.920 E26.28786
G1 X102.244 Y75.924 E26.38489
G1 X102.347 Y76.968 E26.48192
G1 X102.244 Y78.013 E26.57896
G1 X102.008 Y78.791 E26.65419
G1 F1800.000 E25.65419
G92 E0
G1 X97.935 Y71.620 F7800.000
G1 X83.648 Y81.497 F7800.000
G1 E1.00000 F1800.000
G1 X86.309 Y86.107 E1.49225 F540.000
G1 X83.648 Y90.716 E1.98450
G1 X78.326 Y90.716 E2.47675
G1 X75.665 Y86.107 E2.96900
G1 X78.326 Y81.497 E3.46125
G1 X83.588 Y81.497 E3.94795
G1 X83.281 Y82.133 F7800.000
G1 X85.575 Y86.107 E4.37232 F540.000
G1 X83.281 Y90.080 E4.79668
G1 X78.693 Y90.080 E5.22105
G1 X76.399 Y86.107 E5.64541
G1 X78.693 Y82.133 E6.06978
G1 X83.221 Y82.133 E6.48860
G1 X82.914 Y82.769 F7800.000
G1 X84.841 Y86.107 E6.84508 F378.000
G1 X82.914 Y89.444 E7.20156
G1 X79.060 Y89.444 E7.55804
G1 X77.133 Y86.107 E7.91453
G1 X79.060 Y82.769 E8.27101
G1 X82.854 Y82.769 E8.62194
G1 X83.290 Y82.632 F7800.000
G1 X75.665 Y50.919 F7800.000
G1 X78.326 Y55.528 E9.11419 F540.000
G1 X83.648 Y55.528 E9.60644
G1 X86.213 Y51.085 E10.08095
G1 X86.918 Y52.786 E10.25133
G1 X88.767 Y55.196 E10.53226
G1 X91.177 Y57.045 E10.81319
G1 X93.983 Y58.208 E11.09412
G1 X96.995 Y58.604 E11.37505
G1 X100.006 Y58.208 E11.65598
G1 X102.812 Y57.045 E11.93691
G1 X105.222 Y55.196 E12.21785
G1 X107.071 Y52.786 E12.49878
G1 X107.770 Y51.100 E12.66763
G1 X110.326 Y55.528 E13.14051
G1 X115.648 Y55.528 E13.63276
G1 X118.309 Y50.918 E14.12501
G1 X115.641 Y46.297 E14.61856
G1 X126.873 Y46.306 E15.65738
G1 X127.164 Y46.329 E15.68441
G1 X127.694 Y46.421 E15.73419
G1 X127.914 Y46.484 E15.75537
G1 X128.271 Y46.634 E15.79118
G1 X128.414 Y46.718 E15.80650
G1 X128.647 Y46.906 E15.83411
G1 X128.835 Y47.132 E15.86137
G1 X128.919 Y47.270 E15.87629
G1 X129.068 Y47.614 E15.91096
G1 X129.130 Y47.827 E15.93144
G1 X129.226 Y48.325 E15.97841
G1 X129.251 Y48.621 E16.00582
G1 X129.263 Y61.567 E17.20329
G1 X129.369 Y62.270 E17.26903
G1 X129.503 Y62.897 E17.32827
G1 X129.673 Y63.518 E17.38785
G1 X129.881 Y64.133 E17.44788
G1 X130.125 Y64.741 E17.50850
G1 X130.404 Y65.343 E17.56983
G1 X130.718 Y65.937 E17.63199
G1 X131.066 Y66.524 E17.69511
G1 X131.447 Y67.104 E17.75929
G1 X131.861 Y67.676 E17.82465
G1 X132.308 Y68.242 E17.89132
G1 X132.786 Y68.802 E17.95942
G1 X133.297 Y69.354 E18.02901
G1 X133.839 Y69.901 E18.10025
G1 X134.413 Y70.443 E18.17320
G1 X135.017 Y70.979 E18.24793
G1 X135.661 Y71.517 E18.32555
G1 X136.167 Y71.905 E18.38453
G1 X137.366 Y73.467 E18.56662
G1 X138.119 Y75.285 E18.74870
G1 X138.376 Y77.237 E18.93078
G1 X138.119 Y79.188 E19.11281
G1 X137.366 Y81.007 E19.29489
G1 X136.161 Y82.578 E19.47798
G1 X135.034 Y83.496 E19.61246
G1 X134.429 Y84.032 E19.68721
G1 X133.855 Y84.573 E19.76014
G1 X133.313 Y85.120 E19.83137
G1 X132.803 Y85.673 E19.90098
G1 X132.324 Y86.233 E19.96907
G1 X131.877 Y86.799 E20.03576
G1 X131.463 Y87.371 E20.10112
G1 X131.082 Y87.951 E20.16531
G1 X130.734 Y88.538 E20.22841
G1 X130.420 Y89.132 E20.29056
G1 X130.141 Y89.734 E20.35189
G1 X129.897 Y90.342 E20.41252
G1 X129.690 Y90.957 E20.47255
G1 X129.519 Y91.578 E20.53213
G1 X129.344 Y92.478 E20.61694
G1 X64.622 Y92.477 E26.60316
G1 X64.446 Y91.570 E26.68861
G1 X64.275 Y90.949 E26.74819
G1 X64.067 Y90.333 E26.80824
G1 X63.823 Y89.725 E26.86889
G1 X63.544 Y89.124 E26.93017
G1 X63.231 Y88.529 E26.99235
G1 X62.883 Y87.942 E27.05547
G1 X62.501 Y87.362 E27.11966
G1 X62.087 Y86.790 E27.18500
G1 X61.641 Y86.224 E27.25169
G1 X61.162 Y85.665 E27.31979
G1 X60.651 Y85.112 E27.38937
G1 X60.109 Y84.565 E27.46061
G1 X59.536 Y84.023 E27.53356
G1 X58.931 Y83.487 E27.60831
G1 X57.804 Y82.569 E27.74278
G1 X56.599 Y80.998 E27.92588
G1 X55.845 Y79.180 E28.10796
G1 X55.574 Y77.122 E28.29994
G1 X55.574 Y46.290 E31.15156
G1 X78.331 Y46.301 E33.25634
G1 X75.695 Y50.867 E33.74396
G1 F1800.000 E32.74396
G92 E0
G1 X108.381 Y48.860 F7800.000
G1 E1.00000 F1800.000
G1 X108.630 Y46.969 E1.17642 F540.000
G1 X108.541 Y46.291 E1.23960
G1 X110.336 Y46.293 E1.40560
G1 X108.776 Y48.994 E1.69407
G1 X108.438 Y48.879 E1.72712
G1 X107.816 Y45.655 F7800.000
G1 X126.898 Y45.671 E3.49207 F540.000
G1 X127.234 Y45.697 E3.52319
G1 X127.847 Y45.804 E3.58076
G1 X128.113 Y45.880 E3.60639
G1 X128.570 Y46.072 E3.65222
G1 X128.937 Y46.313 E3.69283
G1 X129.234 Y46.606 E3.73139
G1 X129.477 Y46.965 E3.77147
G1 X129.580 Y47.175 E3.79317
G1 X129.747 Y47.670 E3.84140
G1 X129.857 Y48.246 E3.89567
G1 X129.887 Y48.593 E3.92788
G1 X129.898 Y61.519 E5.12346
G1 X129.995 Y62.156 E5.18305
G1 X130.120 Y62.746 E5.23882
G1 X130.281 Y63.332 E5.29500
G1 X130.478 Y63.913 E5.35172
G1 X130.708 Y64.489 E5.40914
G1 X130.974 Y65.060 E5.46738
G1 X131.272 Y65.626 E5.52659
G1 X131.605 Y66.187 E5.58689
G1 X131.970 Y66.743 E5.64838
G1 X132.368 Y67.293 E5.71121
G1 X132.799 Y67.838 E5.77548
G1 X133.262 Y68.379 E5.84130
G1 X133.756 Y68.915 E5.90876
G1 X134.283 Y69.447 E5.97797
G1 X135.432 Y70.497 E6.12193
G1 X136.059 Y71.020 E6.19747
G1 X136.621 Y71.451 E6.26299
G1 X137.921 Y73.146 E6.46055
G1 X138.738 Y75.119 E6.65811
G1 X139.017 Y77.237 E6.85567
G1 X138.739 Y79.354 E7.05318
G1 X137.921 Y81.328 E7.25074
G1 X136.617 Y83.028 E7.44892
G1 X135.448 Y83.978 E7.58824
G1 X134.858 Y84.501 E7.66119
G1 X134.299 Y85.028 E7.73222
G1 X133.773 Y85.560 E7.80143
G1 X133.278 Y86.096 E7.86889
G1 X132.815 Y86.636 E7.93472
G1 X132.385 Y87.182 E7.99899
G1 X131.986 Y87.732 E8.06181
G1 X131.621 Y88.288 E8.12332
G1 X131.289 Y88.849 E8.18360
G1 X130.990 Y89.415 E8.24280
G1 X130.725 Y89.986 E8.30105
G1 X130.494 Y90.562 E8.35848
G1 X130.298 Y91.143 E8.41520
G1 X130.137 Y91.729 E8.47138
G1 X130.011 Y92.319 E8.52715
G1 X129.890 Y93.114 E8.60155
G1 X64.075 Y93.112 E14.68886
G1 X63.954 Y92.310 E14.76393
G1 X63.828 Y91.720 E14.81968
G1 X63.667 Y91.135 E14.87586
G1 X63.471 Y90.553 E14.93260
G1 X63.240 Y89.977 E14.99003
G1 X62.975 Y89.406 E15.04825
G1 X62.676 Y88.840 E15.10747
G1 X62.343 Y88.279 E15.16776
G1 X61.978 Y87.723 E15.22927
G1 X61.580 Y87.173 E15.29208
G1 X61.149 Y86.628 E15.35636
G1 X60.687 Y86.087 E15.42218
G1 X60.192 Y85.551 E15.48963
G1 X59.665 Y85.020 E15.55884
G1 X59.107 Y84.492 E15.62989
G1 X58.516 Y83.969 E15.70284
G1 X57.348 Y83.019 E15.84216
G1 X56.043 Y81.319 E16.04033
G1 X55.226 Y79.346 E16.23789
G1 X54.939 Y77.163 E16.44147
G1 X54.939 Y45.655 E19.35575
G1 X81.442 Y45.667 E21.80710
G1 X82.356 Y45.754 E21.89197
G1 X82.776 Y45.829 E21.93143
G1 X83.168 Y45.924 E21.96873
G1 X83.532 Y46.039 E22.00406
G1 X83.870 Y46.171 E22.03764
G1 X84.182 Y46.322 E22.06970
G1 X84.470 Y46.490 E22.10052
G1 X84.735 Y46.675 E22.13042
G1 X84.979 Y46.878 E22.15978
G1 X85.203 Y47.100 E22.18895
G1 X85.409 Y47.342 E22.21833
G1 X85.598 Y47.605 E22.24828
G1 X85.769 Y47.891 E22.27918
G1 X85.924 Y48.203 E22.31132
G1 X86.061 Y48.540 E22.34501
G1 X86.181 Y48.904 E22.38047
G1 X86.281 Y49.297 E22.41791
G1 X86.387 Y49.842 E22.46928
G1 X87.473 Y52.466 E22.73197
G1 X89.221 Y54.743 E22.99742
G1 X91.498 Y56.490 E23.26287
G1 X94.149 Y57.588 E23.52832
G1 X96.995 Y57.963 E23.79378
G1 X99.840 Y57.588 E24.05923
G1 X102.492 Y56.490 E24.32468
G1 X104.769 Y54.743 E24.59014
G1 X106.516 Y52.466 E24.85559
G1 X107.614 Y49.814 E25.12104
G1 X107.989 Y46.969 E25.38650
G1 X107.824 Y45.715 E25.50348
G1 X107.091 Y45.019 F7800.000
G1 X126.924 Y45.035 E27.33785 F378.000
G1 X127.303 Y45.065 E27.37305
G1 X127.663 Y45.116 E27.40668
G1 X128.312 Y45.276 E27.46850
G1 X128.602 Y45.384 E27.49708
G1 X128.869 Y45.510 E27.52439
G1 X129.113 Y45.655 E27.55068
G1 X129.337 Y45.818 E27.57624
G1 X129.540 Y45.999 E27.60142
G1 X129.724 Y46.199 E27.62654
G1 X129.889 Y46.419 E27.65196
G1 X130.035 Y46.659 E27.67800
G1 X130.163 Y46.921 E27.70497
G1 X130.273 Y47.206 E27.73315
G1 X130.363 Y47.513 E27.76277
G1 X130.488 Y48.166 E27.82432
G1 X130.522 Y48.565 E27.86133
G1 X130.534 Y61.471 E29.05502
G1 X130.620 Y62.042 E29.10846
G1 X130.738 Y62.595 E29.16076
