; generated by Slic3r 1.1.7 on 2015-01-11 at 16:18:54

; perimeters extrusion width = 0.40mm
; infill extrusion width = 0.53mm
; solid infill extrusion width = 0.53mm
; top infill extrusion width = 0.53mm

G21 ; set units to millimeters
M107
M190 S110 ; wait for bed temperature to be reached
M104 S235 ; set temperature
G28 ; home all axes
G1 Z5 F5000 ; lift nozzle

M109 S235 ; wait for temperature to be reached
G90 ; use absolute coordinates
G92 E0
M82 ; use absolute distances for extrusion
G1 F1800.000 E-1.00000
G92 E0
G1 Z0.350 F7800.000
G1 X73.638 Y87.759 F7800.000
G1 E1.00000 F1800.000
G1 X73.908 Y87.532 E1.03261 F1080.000
G1 X74.194 Y87.332 E1.06487
G1 X75.196 Y86.754 E1.17185
G1 X75.512 Y86.607 E1.20409
G1 X76.598 Y86.211 E1.31104
G1 X76.935 Y86.121 E1.34329
G1 X78.074 Y85.920 E1.45029
G1 X79.000 Y85.864 E1.53605
G1 X104.990 Y85.864 E3.93991
G1 X121.578 Y85.890 E5.47415 F1080.000
G1 X121.925 Y85.920 E5.50639
G1 X123.065 Y86.121 E5.61341
G1 X123.402 Y86.211 E5.64565
G1 X124.488 Y86.607 E5.75260
G1 X124.749 Y86.728 E5.77923
G1 X125.806 Y87.332 E5.89182
G1 X126.092 Y87.532 E5.92407
G1 X126.978 Y88.276 E6.03106
G1 X127.224 Y88.522 E6.06330
G1 X127.968 Y89.408 E6.17027
G1 X128.168 Y89.694 E6.20254
G1 X128.746 Y90.695 E6.30948
G1 X128.893 Y91.011 E6.34172
G1 X129.289 Y92.099 E6.44874
G1 X129.379 Y92.435 E6.48098
G1 X129.580 Y93.574 E6.58796
G1 X129.605 Y93.861 E6.61456
G1 X129.636 Y94.500 E6.67373
G1 X129.610 Y106.078 E7.74462
G1 X129.580 Y106.426 E7.77686
G1 X129.379 Y107.565 E7.88385
G1 X129.289 Y107.902 E7.91612
G1 X128.893 Y108.988 E8.02308
G1 X128.746 Y109.304 E8.05532
G1 X128.168 Y110.306 E8.16230
G1 X127.968 Y110.592 E8.19454
G1 X127.224 Y111.478 E8.30152
G1 X126.977 Y111.724 E8.33380
G1 X126.092 Y112.468 E8.44075
G1 X125.806 Y112.668 E8.47301
G1 X124.804 Y113.246 E8.57998
G1 X124.488 Y113.393 E8.61222
G1 X123.401 Y113.789 E8.71920
G1 X123.065 Y113.879 E8.75144
G1 X121.926 Y114.080 E8.85843
G1 X121.000 Y114.136 E8.94419
G1 X95.010 Y114.136 E11.34805
G1 X78.422 Y114.110 E12.88230
G1 X78.074 Y114.080 E12.91458
G1 X76.935 Y113.879 E13.02152
G1 X76.657 Y113.805 E13.04816
G1 X75.512 Y113.393 E13.16074
G1 X75.196 Y113.246 E13.19298
G1 X74.194 Y112.668 E13.29996
G1 X73.908 Y112.468 E13.33221
G1 X73.022 Y111.724 E13.43919
G1 X72.776 Y111.478 E13.47143
G1 X72.032 Y110.592 E13.57841
G1 X71.867 Y110.356 E13.60503
G1 X71.254 Y109.304 E13.71761
G1 X71.107 Y108.988 E13.74987
G1 X70.711 Y107.901 E13.85685
G1 X70.621 Y107.565 E13.88910
G1 X70.420 Y106.426 E13.99607
G1 X70.364 Y105.500 E14.08184
G1 X70.390 Y93.922 E15.15273
G1 X70.420 Y93.574 E15.18499
G1 X70.621 Y92.435 E15.29195
G1 X70.711 Y92.098 E15.32421
G1 X71.107 Y91.012 E15.43119
G1 X71.254 Y90.696 E15.46343
G1 X71.832 Y89.694 E15.57040
G1 X72.032 Y89.408 E15.60265
G1 X72.776 Y88.522 E15.70963
G1 X73.022 Y88.276 E15.74188
G1 X73.592 Y87.798 E15.81070
G1 F1800.000 E14.81070
G92 E0
G1 X110.344 Y98.958 F7800.000
G1 E1.00000 F1800.000
G1 X110.551 Y98.338 E1.06047 F540.000
G1 X110.851 Y97.756 E1.12098
G1 X111.236 Y97.228 E1.18145
G1 X111.592 Y96.859 E1.22884
G1 X112.105 Y96.454 E1.28931
G1 X112.804 Y96.074 E1.36288
G1 X113.423 Y95.863 E1.42337
G1 X114.067 Y95.749 E1.48388
G1 X114.721 Y95.735 E1.54435
G1 X115.369 Y95.821 E1.60482 F540.000
G1 X115.996 Y96.005 E1.66532
G1 X116.589 Y96.282 E1.72580
G1 X117.132 Y96.646 E1.78629
G1 X117.613 Y97.090 E1.84678
G1 X118.020 Y97.601 E1.90727
G1 X118.345 Y98.169 E1.96774
G1 X118.579 Y98.779 E2.02822
G1 X118.718 Y99.418 E2.08871
G1 X118.757 Y100.071 E2.14920
G1 X118.696 Y100.722 E2.20969
G1 X118.536 Y101.356 E2.27018
G1 X118.282 Y101.959 E2.33066
G1 X117.938 Y102.515 E2.39113
G1 X117.514 Y103.013 E2.45162
G1 X117.019 Y103.440 E2.51211
G1 X116.464 Y103.786 E2.57260
G1 X115.863 Y104.044 E2.63308
G1 X115.229 Y104.206 E2.69358
G1 X114.579 Y104.270 E2.75405
G1 X113.926 Y104.235 E2.81452
G1 X113.286 Y104.099 E2.87503
G1 X112.674 Y103.868 E2.93552
G1 X112.105 Y103.546 E2.99600
G1 X111.592 Y103.141 E3.05647
G1 X111.146 Y102.662 E3.11697
G1 X110.779 Y102.122 E3.17744
G1 X110.498 Y101.531 E3.23795
G1 X110.311 Y100.904 E3.29842
G1 X110.222 Y100.256 E3.35890
G1 X110.233 Y99.602 E3.41940
G1 X110.330 Y99.016 E3.47434
G1 X110.949 Y99.161 F7800.000
G1 X111.132 Y98.598 E3.52909 F540.000
G1 X111.385 Y98.102 E3.58059
G1 X111.711 Y97.651 E3.63206
G1 X112.102 Y97.255 E3.68355
G1 X112.549 Y96.923 E3.73502
G1 X113.041 Y96.664 E3.78650
G1 X113.568 Y96.482 E3.83798
G1 X114.116 Y96.383 E3.88947
G1 X114.672 Y96.369 E3.94095 F540.000
G1 X115.224 Y96.440 E3.99242
G1 X115.759 Y96.594 E4.04391
G1 X116.264 Y96.829 E4.09539
G1 X116.727 Y97.137 E4.14687
G1 X117.138 Y97.513 E4.19835
G1 X117.486 Y97.947 E4.24983
G1 X117.765 Y98.429 E4.30131
G1 X117.966 Y98.948 E4.35279
G1 X118.086 Y99.491 E4.40427
G1 X118.121 Y100.047 E4.45575
G1 X118.072 Y100.601 E4.50724
G1 X117.938 Y101.141 E4.55872
G1 X117.723 Y101.655 E4.61020
G1 X117.433 Y102.130 E4.66167
G1 X117.073 Y102.554 E4.71315
G1 X116.653 Y102.919 E4.76464
G1 X116.182 Y103.216 E4.81612
G1 X115.671 Y103.437 E4.86760
G1 X115.132 Y103.578 E4.91908
G1 X114.579 Y103.634 E4.97056
G1 X114.023 Y103.606 E5.02203
G1 X113.478 Y103.493 E5.07352
G1 X112.956 Y103.298 E5.12501
G1 X112.471 Y103.026 E5.17648
G1 X112.033 Y102.683 E5.22796
G1 X111.652 Y102.277 E5.27945
G1 X111.337 Y101.818 E5.33092
G1 X111.097 Y101.316 E5.38241
G1 X110.936 Y100.783 E5.43388
G1 X110.858 Y100.232 E5.48536
G1 X110.858 Y99.768 E5.52824
G1 X110.935 Y99.219 E5.57950
G1 X111.560 Y99.338 F7800.000
G1 X111.695 Y98.899 E5.62198 F378.000
G1 X111.896 Y98.486 E5.66446
G1 X112.186 Y98.074 E5.71104
G1 X112.507 Y97.746 E5.75352
G1 X112.874 Y97.470 E5.79600
G1 X113.239 Y97.272 E5.83436
G1 X113.670 Y97.113 E5.87684
G1 X114.120 Y97.023 E5.91932
G1 X114.623 Y97.003 E5.96590
G1 X115.079 Y97.059 E6.00838 F378.000
G1 X115.521 Y97.184 E6.05086
G1 X115.939 Y97.375 E6.09333
G1 X116.322 Y97.628 E6.13581
G1 X116.663 Y97.936 E6.17829
G1 X116.952 Y98.292 E6.22077
G1 X117.184 Y98.689 E6.26324
G1 X117.353 Y99.116 E6.30572
G1 X117.454 Y99.564 E6.34819
G1 X117.486 Y99.978 E6.38656
G1 X117.454 Y100.436 E6.42904
G1 X117.353 Y100.884 E6.47152
G1 X117.184 Y101.311 E6.51399
G1 X116.952 Y101.708 E6.55647
G1 X116.663 Y102.064 E6.59894
G1 X116.322 Y102.372 E6.64142
G1 X115.939 Y102.625 E6.68390
G1 X115.521 Y102.816 E6.72638
G1 X115.079 Y102.941 E6.76886
G1 X114.623 Y102.997 E6.81133
G1 X114.164 Y102.982 E6.85381
G1 X113.713 Y102.898 E6.89629
G1 X113.279 Y102.746 E6.93876
G1 X112.874 Y102.530 E6.98124
G1 X112.507 Y102.254 E7.02371
G1 X112.186 Y101.926 E7.06620
G1 X111.919 Y101.552 E7.10867
G1 X111.712 Y101.142 E7.15115
G1 X111.570 Y100.705 E7.19362
G1 X111.497 Y100.252 E7.23610
G1 X111.493 Y99.793 E7.27858
G1 X111.551 Y99.398 E7.31551
G1 F1800.000 E6.31551
G92 E0
G1 X114.765 Y96.629 F7800.000
G1 X119.694 Y94.121 F7800.000
G1 E1.00000 F1800.000
G1 X121.065 Y94.133 E1.12676 F540.000
G1 X121.239 Y94.215 E1.14460
G1 X121.323 Y94.314 E1.15657
G1 X121.367 Y94.435 E1.16853
G1 X121.379 Y105.429 E2.18537
G1 X121.350 Y105.627 E2.20389
G1 X121.239 Y105.785 E2.22173
G1 X121.127 Y105.850 E2.23370
G1 X120.929 Y105.879 E2.25223
G1 X106.611 Y105.879 E3.57649
G1 X106.611 Y94.121 E4.66396
G1 X115.989 Y94.121 E5.53126
G1 X119.634 Y94.121 E5.86845 F540.000
G1 X119.634 Y93.486 F7800.000
G1 X120.957 Y93.486 E5.99079 F540.000
G1 X121.176 Y93.505 E6.01108
G1 X121.346 Y93.550 E6.02737
G1 X121.505 Y93.625 E6.04367
G1 X121.650 Y93.726 E6.05996
G1 X121.774 Y93.850 E6.07625
G1 X121.875 Y93.995 E6.09255
G1 X121.950 Y94.154 E6.10884
G1 X121.995 Y94.325 E6.12513
G1 X122.014 Y94.543 E6.14542
G1 X122.014 Y105.457 E7.15486
G1 X121.995 Y105.676 E7.17515
G1 X121.950 Y105.846 E7.19144
G1 X121.875 Y106.005 E7.20774
G1 X121.774 Y106.150 E7.22403
G1 X121.650 Y106.274 E7.24032
G1 X121.505 Y106.375 E7.25662
G1 X121.346 Y106.450 E7.27291
G1 X121.175 Y106.495 E7.28921
G1 X120.957 Y106.514 E7.30949
G1 X105.976 Y106.514 E8.69512
G1 X105.976 Y97.189 E9.55763
G1 X105.976 Y93.486 E9.90016 F540.000
G1 X119.574 Y93.486 E11.15789
G1 X119.574 Y92.850 F7800.000
G1 X120.985 Y92.850 E11.28835 F378.000
G1 X121.286 Y92.876 E11.31635
G1 X121.564 Y92.951 E11.34293
G1 X121.824 Y93.072 E11.36951
G1 X122.060 Y93.237 E11.39609
G1 X122.263 Y93.440 E11.42267
G1 X122.428 Y93.676 E11.44925
G1 X122.549 Y93.936 E11.47583
G1 X122.624 Y94.214 E11.50241
G1 X122.650 Y94.515 E11.53041
G1 X122.650 Y105.485 E12.54498
G1 X122.624 Y105.786 E12.57298
G1 X122.549 Y106.064 E12.59956
G1 X122.428 Y106.324 E12.62614
G1 X122.263 Y106.560 E12.65272
G1 X122.060 Y106.763 E12.67930
G1 X121.824 Y106.928 E12.70588
G1 X121.564 Y107.049 E12.73246
G1 X121.286 Y107.124 E12.75904
G1 X120.985 Y107.150 E12.78704
G1 X105.340 Y107.150 E14.23402
G1 X105.340 Y92.850 E15.55664
G1 X115.989 Y92.850 E16.54152
G1 X119.514 Y92.850 E16.86761 F378.000
G1 X116.335 Y93.050 F7800.000
G1 X115.307 Y95.370 F7800.000
G1 X114.499 Y94.562 E16.97327 F1080.000
G1 X114.321 Y95.298 E17.04333
G1 X113.585 Y94.562 E17.13962
G1 X113.509 Y95.400 E17.21746
G1 X112.671 Y94.562 E17.32708
G1 X111.757 Y94.562 E17.41163
G1 X112.809 Y95.615 E17.54934
G1 X112.179 Y95.899 E17.61326
G1 X110.842 Y94.562 E17.78815
G1 X109.928 Y94.562 E17.87270
G1 X111.632 Y96.265 E18.09550
G1 X111.146 Y96.694 E18.15540
G1 X109.014 Y94.562 E18.43423
G1 X108.100 Y94.562 E18.51878
G1 X110.726 Y97.188 E18.86221
G1 X110.359 Y97.735 E18.92315
G1 X107.186 Y94.562 E19.33817
G1 X107.052 Y95.342 E19.41140
G1 X110.071 Y98.361 E19.80621
G1 X109.869 Y99.074 E19.87472
G1 X107.052 Y96.257 E20.24321
G1 X107.052 Y97.171 E20.32776
G1 X109.781 Y99.900 E20.68474
G1 X109.866 Y100.898 E20.77740
G1 X107.052 Y98.085 E21.14539
G1 X107.052 Y98.999 E21.22993
G1 X110.417 Y102.364 E21.67011
G1 X112.119 Y104.066 F7800.000
G1 X113.491 Y105.438 E21.84957 F1080.000
G1 X113.585 Y104.618 E21.92595
G1 X114.405 Y105.438 E22.03326
G1 X114.594 Y104.712 E22.10260
G1 X115.319 Y105.438 E22.19749
G1 X115.413 Y104.618 E22.27384
G1 X116.234 Y105.438 E22.38111
G1 X117.148 Y105.438 E22.46566
G1 X116.126 Y104.417 E22.59924
G1 X116.752 Y104.128 E22.66296
G1 X118.062 Y105.438 E22.83427
G1 X118.976 Y105.438 E22.91882
G1 X117.306 Y103.768 E23.13730
G1 X117.800 Y103.348 E23.19729
G1 X119.890 Y105.438 E23.47064
G1 X120.804 Y105.438 E23.55519
G1 X118.225 Y102.859 E23.89258
G1 X118.580 Y102.299 E23.95384
G1 X120.938 Y104.658 E24.26231
G1 X120.938 Y103.743 E24.34686
G1 X118.875 Y101.680 E24.61669
G1 X119.088 Y100.980 E24.68444
G1 X120.938 Y102.829 E24.92636
G1 X120.938 Y101.915 E25.01091
G1 X119.191 Y100.168 E25.23947
G1 X119.114 Y99.177 E25.33138
G1 X120.938 Y101.001 E25.56997
G1 X120.938 Y100.087 E25.65452
G1 X118.630 Y97.779 E25.95645
G1 X116.697 Y95.846 F7800.000
G1 X115.413 Y94.562 E26.12437 F1080.000
G1 X116.327 Y94.562 E26.20892
G1 X120.938 Y99.173 E26.81200
G1 X120.938 Y98.259 E26.89655
G1 X117.241 Y94.562 E27.38007
G1 X118.156 Y94.562 E27.46462
G1 X120.938 Y97.344 E27.82856
G1 X120.938 Y96.430 E27.91311
G1 X119.070 Y94.562 E28.15749
G1 X119.984 Y94.562 E28.24203
G1 X120.938 Y95.516 E28.36684
G1 X120.938 Y94.602 E28.45139
G1 X120.898 Y94.562 E28.45662
G1 F1800.000 E27.45662
G92 E0
G1 X112.577 Y105.438 F7800.000
G1 E1.00000 F1800.000
G1 X107.052 Y99.913 E1.72266 F1080.000
G1 X107.052 Y100.827 E1.80721
G1 X111.663 Y105.438 E2.41029
G1 X110.749 Y105.438 E2.49484
G1 X107.052 Y101.741 E2.97835
G1 X107.052 Y102.656 E3.06290
G1 X109.835 Y105.438 E3.42685
G1 X108.920 Y105.438 E3.51140
G1 X107.052 Y103.570 E3.75577
G1 X107.052 Y104.484 E3.84032
G1 X108.006 Y105.438 E3.96512
G1 X107.092 Y105.438 E4.04967
G1 X107.052 Y105.398 E4.05490
G1 F1800.000 E3.05490
G92 E0
G1 X89.607 Y101.221 F7800.000
G1 E1.00000 F1800.000
G1 X89.373 Y101.831 E1.06049 F540.000
G1 X89.048 Y102.399 E1.12096
G1 X88.640 Y102.910 E1.18147
G1 X88.160 Y103.353 E1.24194
G1 X87.492 Y103.786 E1.31552
G1 X86.891 Y104.044 E1.37601
G1 X86.257 Y104.206 E1.43651
G1 X85.607 Y104.270 E1.49699
G1 X84.954 Y104.235 E1.55745
G1 X84.451 Y104.137 E1.60485
G1 X83.832 Y103.926 E1.66534
G1 X83.252 Y103.623 E1.72582
G1 X82.725 Y103.236 E1.78631
G1 X82.264 Y102.772 E1.84678
G1 X81.879 Y102.243 E1.90729
G1 X81.579 Y101.662 E1.96777
G1 X81.372 Y101.042 E2.02826
G1 X81.261 Y100.398 E2.08872
G1 X81.250 Y99.744 E2.14922
G1 X81.372 Y98.958 E2.22276
G1 X81.579 Y98.338 E2.28326
G1 X81.879 Y97.757 E2.34374
G1 X82.264 Y97.228 E2.40425
G1 X82.725 Y96.764 E2.46472
G1 X83.252 Y96.377 E2.52521
G1 X83.702 Y96.132 E2.57259
G1 X84.314 Y95.901 E2.63308
G1 X84.954 Y95.765 E2.69358
G1 X85.749 Y95.735 E2.76714
G1 X86.397 Y95.821 E2.82761 F540.000
G1 X86.891 Y95.956 E2.87501
G1 X87.492 Y96.214 E2.93549
G1 X88.160 Y96.647 E3.00908
G1 X88.640 Y97.090 E3.06955
G1 X88.967 Y97.485 E3.11695
G1 X89.373 Y98.169 E3.19051
G1 X89.564 Y98.644 E3.23790
G1 X89.724 Y99.278 E3.29839
G1 X89.785 Y100.071 E3.37194
G1 X89.746 Y100.581 E3.41929
G1 X89.621 Y101.162 E3.47425
G1 X89.002 Y101.018 F7800.000
G1 X88.751 Y101.655 E3.53760 F540.000
G1 X88.461 Y102.130 E3.58907
G1 X88.101 Y102.554 E3.64056
G1 X87.681 Y102.919 E3.69203
G1 X87.210 Y103.216 E3.74352
G1 X86.699 Y103.437 E3.79500
G1 X86.252 Y103.560 E3.83788
G1 X85.700 Y103.631 E3.88936
G1 X85.144 Y103.617 E3.94082
G1 X84.506 Y103.493 E4.00092
G1 X84.069 Y103.336 E4.04379
G1 X83.577 Y103.077 E4.09527
G1 X83.130 Y102.745 E4.14675
G1 X82.739 Y102.349 E4.19823
G1 X82.413 Y101.898 E4.24972
G1 X82.160 Y101.402 E4.30120
G1 X81.964 Y100.783 E4.36128
G1 X81.886 Y100.232 E4.41275
G1 X81.893 Y99.675 E4.46424
G1 X81.985 Y99.126 E4.51570
G1 X82.160 Y98.598 E4.56718
G1 X82.413 Y98.102 E4.61866
G1 X82.680 Y97.723 E4.66155
G1 X83.061 Y97.317 E4.71303
G1 X83.499 Y96.974 E4.76450
G1 X83.984 Y96.702 E4.81598
G1 X84.506 Y96.507 E4.86747
G1 X85.144 Y96.383 E4.92756
G1 X85.607 Y96.366 E4.97042 F540.000
G1 X86.160 Y96.422 E5.02189
G1 X86.787 Y96.594 E5.08199
G1 X87.210 Y96.784 E5.12486
G1 X87.681 Y97.081 E5.17634
G1 X88.166 Y97.513 E5.23641
G1 X88.461 Y97.870 E5.27930
G1 X88.751 Y98.345 E5.33077
G1 X88.994 Y98.948 E5.39086
G1 X89.100 Y99.399 E5.43374
G1 X89.149 Y99.953 E5.48520
G1 X89.114 Y100.509 E5.53667
G1 X89.016 Y100.959 E5.57931
G1 X88.397 Y100.814 F7800.000
G1 X88.192 Y101.351 E5.63243 F378.000
G1 X87.955 Y101.744 E5.67491
G1 X87.660 Y102.096 E5.71739
G1 X87.315 Y102.399 E5.75986
G1 X86.927 Y102.646 E5.80234
G1 X86.507 Y102.831 E5.84482
G1 X86.107 Y102.941 E5.88318
G1 X85.651 Y102.997 E5.92566
G1 X85.192 Y102.982 E5.96813
G1 X84.741 Y102.898 E6.01061
G1 X84.307 Y102.746 E6.05309
G1 X83.865 Y102.506 E6.09968
G1 X83.502 Y102.225 E6.14215
G1 X83.186 Y101.891 E6.18463
G1 X82.924 Y101.514 E6.22711
G1 X82.723 Y101.101 E6.26959
G1 X82.588 Y100.662 E6.31207
G1 X82.521 Y100.207 E6.35454
G1 X82.525 Y99.748 E6.39702
G1 X82.598 Y99.295 E6.43949
G1 X82.740 Y98.858 E6.48197
G1 X82.924 Y98.486 E6.52033
G1 X83.214 Y98.074 E6.56692
G1 X83.535 Y97.746 E6.60940
G1 X83.902 Y97.470 E6.65187
G1 X84.307 Y97.254 E6.69435
G1 X84.741 Y97.102 E6.73683
G1 X85.192 Y97.018 E6.77931
G1 X85.651 Y97.003 E6.82178
G1 X86.107 Y97.059 E6.86426 F378.000
G1 X86.507 Y97.169 E6.90263
G1 X86.927 Y97.354 E6.94510
G1 X87.350 Y97.628 E6.99169
G1 X87.691 Y97.936 E7.03416
G1 X87.955 Y98.256 E7.07253
G1 X88.212 Y98.689 E7.11912
G1 X88.367 Y99.074 E7.15749
G1 X88.475 Y99.520 E7.19996
G1 X88.514 Y100.022 E7.24655
G1 X88.482 Y100.436 E7.28490
G1 X88.411 Y100.756 E7.31523
G1 F1800.000 E6.31523
G92 E0
G1 X85.592 Y96.608 F7800.000
G1 X78.621 Y95.685 F7800.000
G1 E1.00000 F1800.000
G1 X78.633 Y94.435 E1.11563 F540.000
G1 X78.677 Y94.314 E1.12760
G1 X78.761 Y94.215 E1.13956
G1 X78.935 Y94.133 E1.15740
G1 X93.389 Y94.121 E2.49420
G1 X93.389 Y105.879 E3.58167 F540.000
G1 X79.071 Y105.879 E4.90593
G1 X78.935 Y105.867 E4.91851
G1 X78.814 Y105.823 E4.93048
G1 X78.677 Y105.686 E4.94832
G1 X78.633 Y105.565 E4.96028
G1 X78.621 Y105.429 E4.97287
G1 X78.621 Y95.745 E5.86853
G1 X77.986 Y95.745 F7800.000
G1 X77.986 Y94.543 E5.97974 F540.000
G1 X78.005 Y94.325 E6.00002
G1 X78.050 Y94.154 E6.01632
G1 X78.125 Y93.995 E6.03261
G1 X78.226 Y93.850 E6.04891
G1 X78.350 Y93.726 E6.06520
G1 X78.495 Y93.625 E6.08149
G1 X78.654 Y93.550 E6.09779
G1 X78.825 Y93.505 E6.11408
G1 X79.043 Y93.486 E6.13437
